OPdantas/TS1---Robotica/dados_simulacao.csv
time,q1,q2,q3,q4,q5,q6,qd1,qd2,qd3,qd4,qd5,qd6,condition_number,manipulability,sigma_min,sigma_max,status,speed_factor,adaptive_gain
21.034249544143677,0.0,-1.4,1.44,-1.2,1.03,0.0,7.043037826143793e-05,-0.04909766586322015,0.0578450513588905,-0.00868604562424196,2.488279930217573e-05,-8.685722303563861e-05,7.455009731308439,0.2327840881170518,0.2810441530640153,2.0951868960195728,NORMAL,1.0,1.0
21.04201054573059,0.00043828347076820445,-1.399824544136533,1.4399992988075945,-1.1997544311194734,1.029999603732459,0.00035062502543251034,8.717002734830448e-05,-0.0490921715644979,0.05784605508454067,-0.008683342138753802,3.158991679118591e-05,-0.00010472264803354244,7.4548412371090595,0.23280853505788177,0.28104981648719585,2.0951817616306814,NORMAL,1.0,1.0
21.050491094589233,0.0008623016302613325,-1.3996545271478782,1.4399972858138252,-1.1995166102238917,1.029998466130643,0.0006898279674177723,0.00010336155537658653,-0.04908685655552903,0.05784703961597186,-0.008680744491685691,3.808959093172329e-05,-0.00012199697687675102,7.454684911152017,0.23283209616872763,0.28105508704803883,2.095177116619532,NORMAL,1.0,1.0
21.05873441696167,0.0012486133363239743,-1.3994993955195705,1.4399943091764686,-1.1992997318586567,1.029996783955955,0.0009988501770761594,0.00011811041036593861,-0.04908201460456955,0.05784794818444603,-0.00867839311812615,4.402052909670967e-05,-0.00013772694963131967,7.45454820827416,0.2328534851579945,0.28105971041098604,2.09517316066227,NORMAL,1.0,1.0
21.06624746322632,0.0016247749627221397,-1.3993481250122364,1.4399903637822962,-1.1990883661251877,1.0299945543204991,0.0012997307465432522,0.00013246915788571123,-0.04907730026740696,0.05784884354366109,-0.00867611751644327,4.980408150016862e-05,-0.00015303612045948923,7.454420338709168,0.232874241908394,0.281064048765005,2.095169561593799,NORMAL,1.0,1.0
21.073920011520386,0.0020336179667829967,-1.3991834706401738,1.4399849039506456,-1.1988584322790208,1.0299914688467997,0.0016267194172463586,0.00014807249980848034,-0.04907217680345688,0.05784982867610023,-0.008673659861226975,5.609952655290169e-05,-0.00016966698635197564,7.454287224528573,0.23289672364251235,0.2810685810566833,2.095165932987208,NORMAL,1.0,1.0
21.082440853118896,0.0024595521957194626,-1.3990116647314166,1.439977917668551,-1.1986186637345566,1.029987520740945,0.001967332217072645,0.0001643248839653888,-0.049066839691046374,0.057850868327460385,-0.008671116806367249,6.266852522121867e-05,-0.00018698381758401145,7.454155042944236,0.2329200586159674,0.28107310009635433,2.0951624665192097,NORMAL,1.0,1.0
21.090446949005127,0.002859715116411164,-1.3988500035331974,1.4399701468901691,-1.1983931992084842,1.02998312928767,0.0022872855223249776,0.00017959088863088001,-0.04906182601881207,0.057851857532690745,-0.008668743740358214,6.884967049646802e-05,-0.00020324428771171117,7.454036899958195,0.23294190143811758,0.28107715722733645,2.095159501707917,NORMAL,1.0,1.0
21.09848928451538,0.003211422838588279,-1.3987077165525639,1.4399623511593533,-1.198194876068674,1.0299787237144793,0.0025684491425652747,0.00019300592522420834,-0.04905741987516149,0.057852736968418174,-0.008666670921044449,7.428999993922066e-05,-0.00021752893363557739,7.453937895519112,0.23296103531759363,0.28108057229678646,2.095157129537216,NORMAL,1.0,1.0
21.106040000915527,0.0036389540379263606,-1.3985345000434635,1.439951657564769,-1.1979535992772323,1.029972680442576,0.0029101605134820747,0.00020930999340458277,-0.04905206438877892,0.05785381867181712,-0.008664167476353572,8.091278786186452e-05,-0.00023488452640884046,7.45382363638214,0.2329842137662493,0.28108453361295155,2.095154540465668,NORMAL,1.0,1.0
21.114655256271362,0.004044228224004613,-1.39837004237475,1.4399402871246847,-1.1977246863315079,1.0299662546059258,0.003234006006461346,0.00022476215833943213,-0.0490469882984409,0.05785485696359963,-0.008661810820797132,8.720047603125737e-05,-0.00025132787093374984,7.453721495821189,0.23300610428555155,0.28108809618167924,2.0951523847288365,NORMAL,1.0,1.0
21.12270426750183,0.004446196602840963,-1.3982066764311658,1.4399278230567183,-1.1974974548935584,1.0299592106428774,0.0035551278936353167,0.00024008526513861982,-0.049041954206418,0.05785589925286895,-0.008659489216906926,9.344613693046566e-05,-0.00026762871600077034,7.453626122066193,0.23302773832372084,0.2810914445515187,2.0951505337985203,NORMAL,1.0,1.0
21.129732847213745,0.004822528714028576,-1.3980535031029682,1.4399150825825533,-1.1972845509702679,1.0299520103785864,0.003855688366748013,0.0002544283800600966,-0.0490372417282843,0.05785688637776501,-0.008657329968300393,9.930179104092469e-05,-0.0002828824039105176,7.453542188595593,0.23304792245763264,0.2810944122067246,2.095149060361302,NORMAL,1.0,1.0
21.137362003326416,0.0052035066770838466,-1.397898214986917,1.4399011290602008,-1.197068859552736,1.029944124446921,0.004159872215718888,0.00026894585949602864,-0.04903247164143511,0.05785789688467177,-0.008655158144263807,0.00010523789403290848,-0.0002983169869737942,7.453462498286407,0.23306828683321637,0.2810972517767508,2.095147824489384,NORMAL,1.0,1.0
21.145385265350342,0.005604083360901157,-1.3977346944749482,1.4398853115539023,-1.1968419027420014,1.0299351849189684,0.004479602171237729,0.00028420722036609335,-0.049027456803814026,0.05785897158541089,-0.008652889878464175,0.00011148818380062363,-0.0003145375470209655,7.4533844393333695,0.23308962419897414,0.2811000586152904,2.0951468027789035,NORMAL,1.0,1.0
21.154005527496338,0.006034365734968362,-1.3975587680397183,1.439867011505041,-1.1965979256199348,1.0299248421290492,0.004822916776404261,0.00030059694708150787,-0.04902207083460544,0.057860140001105086,-0.008650470863742375,0.00011821199583766637,-0.0003319518337750179,7.453307139005346,0.23311245888992196,0.28110286932470047,2.095146022732677,NORMAL,1.0,1.0
21.161537885665894,0.00641025363326605,-1.3974048433937893,1.439849914192749,-1.1963846333655344,1.0299151788869068,0.005122716796856187,0.00031491188087602595,-0.04901736640036302,0.05786117265736829,-0.008648372456293636,0.00012409426238641324,-0.000347156944303729,7.453245163173679,0.23313233504480904,0.28110515147929144,2.095145610606233,NORMAL,1.0,1.0
21.17015767097473,0.006840295623368455,-1.397228469335243,1.439829082521442,-1.1961404355240932,1.029903404732869,0.005465569299745718,0.00033128586433264214,-0.049011984986088775,0.05786236782945857,-0.008645988674005383,0.00013083360275644774,-0.00036454382418860045,7.453180612812381,0.23315499275079216,0.28110756417539035,2.0951454474269315,NORMAL,1.0,1.0
21.177723169326782,0.007217634696406697,-1.3970734689678204,1.439809685697995,-1.195926012734874,1.0298924412704302,0.005766273858470623,0.0003456502552741797,-0.04900726379566526,0.05786342867513293,-0.00864391193210082,0.00013675542996680108,-0.0003797921475356582,7.453129562357926,0.23317480176825833,0.28110950681990643,2.0951455755393016,NORMAL,1.0,1.0
21.18578338623047,0.007619534741895039,-1.3969081303051765,1.4397878760830447,-1.1956974800994307,1.0298801137083373,0.00608640924913671,0.00036094661705602825,-0.04900223606462691,0.05786457112760201,-0.008641715342116696,0.00014307131383752082,-0.0003960250413512506,7.453080938346564,0.23319582638859604,0.2811113965486391,2.095145991168644,NORMAL,1.0,1.0
21.19443917274475,0.008050993203134939,-1.3967303439763947,1.439763140788802,-1.195451967660387,1.029866132000919,0.006429917281305588,0.00037736450960405566,-0.04899683946484057,0.05786581210347115,-0.008639374808951295,0.00014986154043545436,-0.0004134427132176985,7.453035343932382,0.23321831279616267,0.2811132191875367,2.0951467582513215,NORMAL,1.0,1.0
21.202006101608276,0.00842805293752716,-1.3965747282059933,1.4397404026197278,-1.1952372670491298,1.0298532787470231,0.006729961588749344,0.00039170946645926294,-0.04899212406657895,0.05786690898214157,-0.00863734431340872,0.0001558039410640758,-0.00042865665111800746,7.453001103380021,0.23323789259901523,0.2811146371702781,2.0951477010063573,NORMAL,1.0,1.0
21.210458993911743,0.008849117283173792,-1.3964006800955688,1.4397137733797456,-1.1949973562175424,1.0298382254490428,0.007064844038759093,0.0004077252792558,-0.048986859263091424,0.057868147586293245,-0.008635093332817088,0.0001624489414290606,-0.0004456376618380479,7.452969051124436,0.2332596788086566,0.2811160277267879,2.095149054422789,NORMAL,1.0,1.0
21.218340635299683,0.009241583623637941,-1.3962381941454594,1.4396877760357272,-1.194773597015215,1.029823528797269,0.0073768042124278,0.00042265020769049756,-0.048981952922759316,0.05786931517401729,-0.00863301090843741,0.0001686512205058561,-0.0004614573267734472,7.452945056638915,0.23327991076250634,0.281117140402917,2.095150601902388,NORMAL,1.0,1.0
21.225388288497925,0.009592400157693208,-1.3960927393277298,1.4396635756961318,-1.1945734699157966,1.0298098475133348,0.0076555066242226955,0.00043598869868276323,-0.04897756800571041,0.05787036962148623,-0.0086311622890722,0.00017420227892516878,-0.00047559161950639094,7.452928415805048,0.23329793484811726,0.28111798505579777,2.095152219016214,NORMAL,1.0,1.0
21.23404097557068,0.010022948372624782,-1.3959139510214358,1.439632632979721,-1.1943277153853022,1.0297923538169758,0.007997347057352697,0.00045235537929637744,-0.04897218750154697,0.05787167769408526,-0.008628910069569073,0.00018102391813992782,-0.0004929298620124073,7.452914201193248,0.2333199770696906,0.281118828046701,2.0951545057720606,NORMAL,1.0,1.0
21.241584300994873,0.01039814318507894,-1.3957579000847022,1.4396045509509694,-1.1941134301969334,1.0297764767298687,0.00829504801916923,0.00046661489198825844,-0.04896749966098825,0.05787283022908771,-0.008626962287886784,0.0001869765502610785,-0.0005080314690096323,7.452907398693293,0.23333911521363804,0.2811193884889099,2.0951567703851306,NORMAL,1.0,1.0
21.249602556228638,0.010796798061068499,-1.395591836788768,1.4395735714160218,-1.1938856207766009,1.029758960660854,0.008611160856561427,0.00048176295834515546,-0.04896251966812646,0.05787406780443987,-0.008624907918210243,0.00019330952368001658,-0.0005240696627549841,7.452905876172494,0.2333593784903655,0.2811198060505913,2.0951594544229235,NORMAL,1.0,1.0
21.258146047592163,0.011221375725196835,-1.3954146849636562,1.4395392825017022,-1.1936428593197657,1.0297395724769323,0.008947590467118412,0.0004978925551522429,-0.048957216977821516,0.05787540064833721,-0.008622737205295383,0.0002000634724534663,-0.0005411420675180854,7.452910726303488,0.2333808784938892,0.28112004895513454,2.0951626282366838,NORMAL,1.0,1.0
21.266250133514404,0.011623927563952106,-1.3952464454471336,1.4395055373279917,-1.193412563071128,1.0297204907436626,0.009266330926427339,0.0005131820650031537,-0.048952190484850555,0.057876678534760764,-0.008620695548771049,0.00020647573325831593,-0.0005573205556279816,7.452921497539897,0.233401186199279,0.28112008678434186,2.095165938185303,NORMAL,1.0,1.0
21.273930549621582,0.012005258536736509,-1.3950868241716967,1.4394724608766785,-1.1931942947741738,1.029701786179631,0.009568048836139702,0.0005276625716447772,-0.048947429993878244,0.057877901876305544,-0.008618776303217399,0.00021255772180580595,-0.0005726387913449857,7.452937249724175,0.2334203544019235,0.28111994961327047,2.0951693441133266,NORMAL,1.0,1.0
21.28223967552185,0.012417605264155307,-1.3949139442148688,1.4394354770796314,-1.1929581538786507,1.0296808708857454,0.009894057884435217,0.0005433175555818811,-0.04894228346239881,0.0578792388476495,-0.008616717161406919,0.00021914283638471384,-0.0005891948730371192,7.4529603662968915,0.23344100626950479,0.2811196116307459,2.0951733236727237,NORMAL,1.0,1.0
21.28979182243347,0.012792200585098171,-1.3947566422088822,1.4394007815603016,-1.1927435274636247,1.029661248564915,0.01018998794128143,0.0005575362985737053,-0.04893760918048442,0.05788046622508096,-0.008614861156689394,0.00022513263140739424,-0.0006042279504596086,7.45298685328732,0.23345969959482665,0.2811191335430205,2.0951772065036542,NORMAL,1.0,1.0
21.297863245010376,0.01319235080726956,-1.3945883451687406,1.4393625631255094,-1.1925141521145401,1.029639632583258,0.010505854285667462,0.0005727218902319427,-0.048932617177812464,0.057881790895574735,-0.0086128939295642,0.00023153896137514664,-0.0006202789764444505,7.453020925779736,0.2334795969644745,0.28111844271088904,2.095181636146868,NORMAL,1.0,1.0
21.30639624595642,0.01361515053696222,-1.3944102243867873,1.439320882149983,-1.1922716768639428,1.0296160567203747,0.010839307397568337,0.0005887634692515733,-0.04892734395295075,0.05788320587033644,-0.008610832655821398,0.00023831673392509347,-0.0006372300129109485,7.45306342215581,0.23350054075488452,0.28111751032185844,2.0951866335073515,NORMAL,1.0,1.0
21.31393265724182,0.013988364611797614,-1.3942527379670206,1.4392829784797618,-1.1920575423317232,1.029594616033707,0.011133396159765739,0.0006029206546591459,-0.04892269034248854,0.057884468072756295,-0.008609027923769443,0.00024430710845374764,-0.0006521857891567726,7.453106489098206,0.23351896020651092,0.28111651416768524,2.0951913159358426,NORMAL,1.0,1.0
21.322509288787842,0.01441284997299408,-1.3940733236241798,1.4392385993950145,-1.1918138838866437,1.0295695107828373,0.011467583856178168,0.0006190192316654386,-0.048917398806241345,0.05788591879714413,-0.008606992154852201,0.0002511289180201887,-0.0006691879080126415,7.453161813871592,0.23353983259548092,0.28111518354332715,2.09519695128463,NORMAL,1.0,1.0
21.33019781112671,0.01479315485341895,-1.3939123166971412,1.4391976911112079,-1.1915954921367717,1.0295463673656604,0.01176670801286675,0.0006334390994330082,-0.0489126592915118,0.0578872322948392,-0.008605183563453463,0.00025724834352665706,-0.000684413008664394,7.453217121760497,0.23355846262661378,0.2811138125069991,2.0952022805405357,NORMAL,1.0,1.0
21.338361740112305,0.015196735797009187,-1.3937411790608927,1.439153090331795,-1.1913636408073707,1.0295211332031733,0.012083840442673223,0.0006487382279447071,-0.04890763105817176,0.05788864051375226,-0.008603280116214232,0.0002637501403206748,-0.0007005622756681441,7.453281759513875,0.23357816065327508,0.28111217233239477,2.095208226422359,NORMAL,1.0,1.0
21.34563446044922,0.01555604710195263,-1.3935885730589042,1.43911235023682,-1.191157143640146,1.0294980817249983,0.012365919669988653,0.0006623563020040629,-0.04890315558850281,0.057889906764276196,-0.008601599207485136,0.0002695454952760398,-0.0007149334699170964,7.453344466770238,0.233595635437805,0.28111055132274576,2.095213772252118,NORMAL,1.0,1.0
21.35435152053833,0.015986445073401023,-1.3934054750407658,1.439062268643646,-1.1909096993802144,1.0294697425462789,0.012703466573419881,0.0006786650326797505,-0.04889779622093409,0.05789143914597933,-0.008599602820477153,0.0002764957351965983,-0.0007321396877416305,7.453425989689035,0.23361649000646206,0.28110840994504505,2.0952207286045583,NORMAL,1.0,1.0
21.362111806869507,0.016369347825412973,-1.3932423056669145,1.439016537535508,-1.1906894785813595,1.0294438630899028,0.01300344545088576,0.0006931707863220798,-0.04889302971283694,0.05789281683569273,-0.008597842412580116,0.0002826865834221123,-0.0007474396790551887,7.453504399926015,0.23363497233325828,0.2811063216139667,2.095227204996718,NORMAL,1.0,1.0
21.369628429412842,0.0167399929798125,-1.3930841103092446,1.4389712136614614,-1.190476236391944,1.0294182121564952,0.013293527641549095,0.000707209224713926,-0.048888417119537786,0.057894163440318495,-0.008596152444545644,0.00028868600496205683,-0.0007622431842225323,7.453585587020593,0.2336527994616977,0.28110413547735197,2.095233732645875,NORMAL,1.0,1.0
21.37766194343567,0.01713586455525553,-1.3929148756068819,1.4389216548706376,-1.1902484064021894,1.0293901622720565,0.013603026081687484,0.000722199909655509,-0.04888349206785661,0.0578956159408536,-0.008594362788620675,0.00029510104840709873,-0.000778046970009909,7.453678054828725,0.23367177094188696,0.281101621334282,2.095240986116112,NORMAL,1.0,1.0
21.386220455169678,0.01755730239047126,-1.3927344003613191,1.4388675874228025,-1.1900057817165728,1.0293595578797758,0.013932132097942536,0.0007381550535787285,-0.04887825066664828,0.05789717853802883,-0.008592474993787132,0.00030193861923763884,-0.0007948631822326859,7.453783040517995,0.23369188939887262,0.2810987409967996,2.0952490283529053,NORMAL,1.0,1.0
21.394257068634033,0.017952748379518692,-1.3925647624292623,1.4388156253605384,-1.1897780481421858,1.02933014261303,0.014240574913221222,0.0007531227170570307,-0.0488733341805199,0.05789866015953882,-0.008590720020046221,0.0003083621559648305,-0.0008106345831699835,7.453887703689226,0.23371069373422296,0.2810958467597305,2.095256875720466,NORMAL,1.0,1.0
21.40178942680359,0.01832311916350748,-1.392405622172496,1.4387658767737193,-1.1895646942768026,1.0293019779709054,0.014529130402667834,0.0007671382311022559,-0.048868730938649685,0.05790006145322066,-0.008589090754570492,0.00031438506555469804,-0.0008253991917328211,7.453991143906013,0.2337282413365698,0.2810929675221762,2.095264490524562,NORMAL,1.0,1.0
21.40934419631958,0.01869433086444122,-1.392245867771419,1.438714963576887,-1.1893507995882453,1.029273151553972,0.014818014506113556,0.0007811825935917063,-0.04886411872584086,0.05790147924654428,-0.00858747182120221,0.00032042810119072376,-0.0008401908096436239,7.454100084466394,0.2337457663542121,0.28108991785887405,2.095272380454485,NORMAL,1.0,1.0
21.417487621307373,0.01909416790099569,-1.3920735094655186,1.4386589441534703,-1.1891203506094596,1.0292414311909124,0.01512880151563277,0.000796306618333308,-0.048859152547657825,0.0579030213968604,-0.008585743795897422,0.0003269443135463683,-0.0008561157824632377,7.4542233355644605,0.2337645729007432,0.28108644910785596,2.095281168250732,NORMAL,1.0,1.0
21.42614245414734,0.01951876758601035,-1.391890151477492,1.4385981124284604,-1.1888755647330582,1.029206982507108,0.015458401833110997,0.0008123634881511013,-0.04885388077933262,0.05790467625184004,-0.008583926676845361,0.00033387218300391213,-0.000873018781912305,7.454360945917334,0.2337844648534072,0.2810825562372373,2.0952908297934747,NORMAL,1.0,1.0
21.434168100357056,0.01991217338767791,-1.3917199633798842,1.4385405124609592,-1.188648706238404,1.02917436066826,0.015763379081404606,0.0008272371928653301,-0.04884899816986121,0.05790622546720494,-0.008582259576684443,0.00034029847643007703,-0.000888672426391121,7.454494645003075,0.23380282251796586,0.28107875651408915,2.0953000852584007,NORMAL,1.0,1.0
21.44226884841919,0.020284130688298853,-1.3915587862548922,1.438484955778369,-1.1884341692562879,1.0291428930136306,0.016051359621142305,0.0008412968531273068,-0.04884438344544915,0.05790770443019721,-0.008580698019512138,0.0003463809010781603,-0.0009034659743138122,7.454626551667302,0.23382011485244242,0.28107499295797833,2.095309105514245,NORMAL,1.0,1.0
21.44977879524231,0.020676463415491887,-1.391388496398074,1.4384251976197147,-1.1882078338152067,1.0291090422820004,0.01635471817242443,0.0008561233761550246,-0.048839517747192605,0.05790927949484156,-0.008579066394755438,0.00035280330707285104,-0.0009190629029979222,7.4547714880360605,0.23383828654842767,0.2810708427161604,2.0953189043987006,NORMAL,1.0,1.0
21.458285331726074,0.021092410953997977,-1.3912076367367823,1.4383605410080502,-1.1879678264960372,1.029072412859143,0.016675881237682755,0.0008718385908694118,-0.048834361262422854,0.05791096641427197,-0.008577353955739692,0.0003596198450993406,-0.0009355908040992752,7.454931672347764,0.2338574758969273,0.2810662397790954,2.0953296129568693,NORMAL,1.0,1.0
21.466378211975098,0.021463129916730113,-1.391046163868637,1.4383017831987566,-1.187753877487365,1.0290391217122499,0.01696171942127739,0.000885841743705499,-0.04882976732381833,0.05791248481442001,-0.008575842850527362,0.0003657016916094794,-0.0009503147610446438,7.455080112776134,0.2338745126446518,0.28106196092490626,2.0953394353491315,NORMAL,1.0,1.0
21.473931550979614,0.02185646859312075,-1.3908745491005017,1.4382382711272588,-1.1875268368725642,1.0290031330954954,0.01726457459213191,0.0009006959476690229,-0.048824895032079485,0.057914111351788415,-0.008574255178943616,0.0003721612905449405,-0.0009659301643516355,7.455243473141406,0.23389252086279472,0.28105723872931104,2.0953501446158422,NORMAL,1.0,1.0
21.482032299041748,0.022251532825245016,-1.3907018795963746,1.438173265810697,-1.1872987646530486,1.0289662942576863,0.01756831054567829,0.0009156118161240847,-0.048820003431889844,0.057915761209297034,-0.008572676791714248,0.000378656084051293,-0.0009816068926069737,7.455413642489423,0.23391053755862337,0.28105230644618173,2.095361199731981,NORMAL,1.0,1.0
21.490288734436035,0.022653814069254527,-1.3905257429362503,1.4381058189280678,-1.187066492662931,1.0289280673924783,0.01787712464029595,0.0009307965460463429,-0.04881502464858668,0.057917458013328954,-0.0085710863539198,0.0003852765324782655,-0.0009975626323142426,7.455593212088722,0.23392881074365465,0.2810470885273696,2.095372765501955,NORMAL,1.0,1.0
21.49782681465149,0.02302075766557075,-1.3903648016623453,1.4380431904127053,-1.1868545976551983,1.0288925674294918,0.018158389451414843,0.0009446442011813841,-0.04881048517498995,0.057919020676965235,-0.008569650437922573,0.00039132154157611184,-0.001012110303939176,7.455762559784437,0.2339454148183144,0.28104215644690717,2.0953835877579308,NORMAL,1.0,1.0
21.50618052482605,0.02342702279492309,-1.3901863037426576,1.4379726161175415,-1.1866199697433792,1.028852558898589,0.01846931564861967,0.0009599721878711392,-0.0488054614804867,0.05792076753029142,-0.008568077185044248,0.0003980210926454346,-0.0010282097251245765,7.4559562514132764,0.23396372700262755,0.2810365033285844,2.0953958738680867,NORMAL,1.0,1.0
21.514299154281616,0.023821463711795283,-1.3900126870381855,1.437902851317299,-1.186392147337093,1.0288130044356865,0.01877070185270827,0.000974850445228071,-0.04880058628757621,0.0579224805096862,-0.008566566397693489,0.0004045324014536693,-0.0010438333884320128,7.456150554265399,0.2339814346272388,0.2810308206472884,2.0954081091349392,NORMAL,1.0,1.0
21.52231526374817,0.0242105386293241,-1.3898411272567412,1.4378328310047268,-1.1861674049403497,1.0287733002612394,0.019067505399746332,0.0009895227941414618,-0.04879577967526327,0.057924186704643825,-0.008565092311651637,0.00041096159001890325,-0.0010592375893881871,7.4563482633963885,0.23399883222489593,0.28102502739294066,2.0954204749722756,NORMAL,1.0,1.0
21.530608654022217,0.024588224460272288,-1.389674297836403,1.437763712850012,-1.1859492258469415,1.0287341028744224,0.019355153965041283,0.0010037623074647408,-0.048791115954596675,0.05792585878140715,-0.008563676765312054,0.00041720867090198194,-0.0010741843251849737,7.4565459494800965,0.23401565484963954,0.2810192247306563,2.0954327618914124,NORMAL,1.0,1.0
21.5386803150177,0.024979239170891013,-1.3895012762685766,1.4376909611156847,-1.1857233340630222,1.02869283972867,0.019652460533566507,0.0010185008605496533,-0.04878628997003131,0.057927606433356135,-0.008562227288777181,0.00042368248691723113,-0.001089651768582874,7.456756613379924,0.234033002922696,0.28101303097421093,2.095445777162885,NORMAL,1.0,1.0
21.545700311660767,0.025343324913562393,-1.389339890235404,1.4376221242909248,-1.1855129902042985,1.0286537921763597,0.019928832569187392,0.0010322211752492806,-0.048781798517298046,0.05792924900514547,-0.008560892342928346,0.0004297161447062752,-0.0011040477993074882,7.456958274947827,0.23404909378948924,0.28100709287409276,2.0954581665264986,NORMAL,1.0,1.0
21.554033756256104,0.025746172827691496,-1.3891610051891272,1.4375447241271375,-1.1852802451070727,1.0286098814366809,0.02023410318792883,0.0010473985999386146,-0.048776831373596,0.057931083772379544,-0.008559431856012595,0.00043639851472251017,-0.0011199695744649114,7.457187613712552,0.23406682752370944,0.2810003299374119,2.0954721798584086,NORMAL,1.0,1.0
21.562262535095215,0.026143522504752215,-1.388984233083295,1.437467105931289,-1.1850506725604015,1.0285658409837397,0.020534657305471847,0.0010623651392951386,-0.04877193463892362,0.05793291147882469,-0.008558008428501428,0.00044299615411425757,-0.0011356669444317184,7.457420231539465,0.2340842468791143,0.2809934604413089,2.0954863168253013,NORMAL,1.0,1.0
21.569790363311768,0.026506637361447673,-1.3888224040395474,1.4373950650124334,-1.1848408788241935,1.028524959665132,0.020808830283501476,0.0010760389320187069,-0.048767462115614814,0.05793459746742544,-0.008556722567069706,0.00044903092915100695,-0.0011500057180978947,7.457638392189737,0.23410010253813224,0.28098700956006456,2.095499510201722,NORMAL,1.0,1.0
21.57864761352539,0.026909023646711418,-1.3886427503418783,1.4373139905839756,-1.1846083979865665,1.028478945832892,0.021112103981109506,0.0010911879122582559,-0.04876250852258186,0.05793648352726821,-0.008555314348804997,0.00045572453968466167,-0.0011658884224720152,7.45788639804336,0.23411760280123467,0.2809796671348374,2.095514437651655,NORMAL,1.0,1.0
21.585680723190308,0.027271890897359038,-1.3884804479966797,1.4372397553893137,-1.1843987544435075,1.0284368078084871,0.021385087236717792,0.0011048457766633343,-0.04875804385845374,0.05793820047528207,-0.008554059553257382,0.00046176627081564,-0.0011802051235176487,7.458115700760438,0.23413332097743278,0.28097287049690595,2.0955281769407037,NORMAL,1.0,1.0
21.594011545181274,0.02767240473760473,-1.3883009826420407,1.4371565778004505,-1.1841673695352886,1.0283895872218385,0.021685825907947254,0.001119916950787178,-0.0487531187250291,0.057940113462950825,-0.00855269128587457,0.00046844083160855766,-0.0011960004148155064,7.458375040231178,0.23415060004079688,0.2809651750447215,2.095543648727735,NORMAL,1.0,1.0
21.602402448654175,0.028075321707246893,-1.388120094475519,1.4370715832623915,-1.1839346088167593,1.0283413279158145,0.021987759784127633,0.0011350746601223743,-0.048748166988588006,0.057942057064460394,-0.008551332569518214,0.00047516175193731557,-0.0012118833769107558,7.458642573827084,0.23416790875372928,0.2809572276637983,2.0955595396776348,NORMAL,1.0,1.0
21.610405921936035,0.028459174560522722,-1.3879474399861853,1.436989376637447,-1.1837128761352738,1.0282946446080756,0.022274829555094817,0.0011495115288829257,-0.048743452352530456,0.05794392672260504,-0.008550054777221098,0.00048157050385279744,-0.0012270082306700364,7.458903664820227,0.234184329350979,0.2809494636901936,2.095574984348062,NORMAL,1.0,1.0
21.61841869354248,0.028818806176890928,-1.3877853902341566,1.4369112614691162,-1.1835051508163639,1.0282502783942247,0.02254326507789877,0.0011630341802982428,-0.04873903774693253,0.057945694502105405,-0.008548872400986023,0.0004875799793945783,-0.0012411728771980451,7.459153804143493,0.2341996525015447,0.2809420184996849,2.0955897260356764,NORMAL,1.0,1.0
21.625966787338257,0.02920417590367934,-1.3876114295764796,1.4368263752325579,-1.1832825790842563,1.0282020594589496,0.02283034474573159,0.0011775211188881202,-0.048734309972523766,0.057947606237855526,-0.00854762134488945,0.0004940249864445024,-0.0012563450276295157,7.4594277976875,0.23421600638672488,0.2809338560937903,2.095605815457559,NORMAL,1.0,1.0
21.63398575782776,0.0295874095351875,-1.3874381094856096,1.4367407442750366,-1.1830612646709717,1.0281534100562577,0.02311524204095912,0.0011919241475328395,-0.04872961130707946,0.057949525431134935,-0.008546393643510874,0.0005004398042504568,-0.0012714267092618764,7.459706401905924,0.23423220190237978,0.28092554910739626,2.095622117135381,NORMAL,1.0,1.0
21.642303943634033,0.02998444024936265,-1.3872582066774188,1.436650747846758,-1.1828320106737427,1.0281022724412097,0.023409764479648466,0.0012068418964933593,-0.048724746595628636,0.057951532885129664,-0.008545139085276677,0.0005070913319077541,-0.0012870446838976572,7.460001507872455,0.2342489091514945,0.2809167426817053,2.09563932399214,NORMAL,1.0,1.0
21.65015745162964,0.030358815782614953,-1.3870882474433448,1.436564686816606,-1.182615867531574,1.028053363247325,0.023686882865945655,0.0012209048434499675,-0.04872016243240941,0.05795344382564808,-0.00854397235041906,0.0005133686352348696,-0.0013017652749329073,7.460285831227336,0.2342645964523527,0.2809082512808807,2.0956558469056024,NORMAL,1.0,1.0
21.658870220184326,0.030749602593852333,-1.3869105020227281,1.4364736062680221,-1.1823902829532742,1.0280015931581659,0.023975520042826673,0.0012355805429028718,-0.04871538044154684,0.0579554573852903,-0.00854277135458542,0.0005199265682918734,-0.001317124771306441,7.460588914333292,0.2342809023463437,0.28089919279768405,2.095673403831572,NORMAL,1.0,1.0
21.666380882263184,0.031106689228976605,-1.3867477827590182,1.436389262602359,-1.1821841847408756,1.0279536447163917,0.024238695760171635,0.0012489873232759718,-0.048711013678400514,0.05795731429296395,-0.008541689073339364,0.0005259237910698486,-0.001331154027408724,7.460871505733932,0.23429574026898486,0.2808907408210389,2.095689724416184,NORMAL,1.0,1.0
21.673895597457886,0.031487540105687224,-1.3865739143338303,1.436298125410369,-1.1819644079649756,1.0279018260114052,0.02451877665042352,0.0012632828036647336,-0.048706359355950544,0.057959312826221444,-0.008540550773888397,0.0005323251572879014,-0.0013461109731306446,7.461178868421142,0.23431150050121555,0.28088154185125797,2.0957074245901546,NORMAL,1.0,1.0
21.682405710220337,0.03189111528810791,-1.3863893084078744,1.4362002156886708,-1.181731563158943,1.0278461470583111,0.024814872493195413,0.0012784272646652846,-0.048701430824812424,0.05796145112893096,-0.008539362668643278,0.000539114078192662,-0.0013619536684453832,7.461511317088961,0.23432812756523322,0.28087158536023327,2.0957265128140987,NORMAL,1.0,1.0
21.690433263778687,0.03227127696558892,-1.3862150679713083,1.4361067252642203,-1.181512272907489,1.0277929720263428,0.025093124505478372,0.0012926893421074095,-0.04869679158323659,0.05796348488092753,-0.008538260619090297,0.0005455143551341665,-0.0013768709761658895,7.461830855310026,0.23434372065610592,0.2808620093404005,2.0957448073805733,NORMAL,1.0,1.0
21.697532176971436,0.03260702795599021,-1.3860609024652515,1.4360231353222537,-1.1813186399097682,1.0277454204951273,0.025338325994333125,0.0013052822568989772,-0.048692697061169674,0.05796529693173979,-0.008537301192491908,0.0005511711128238184,-0.0013900405979761746,7.4621182306865785,0.23435743609230655,0.28085339231596096,2.095761218951102,NORMAL,1.0,1.0
21.706087827682495,0.03301113068033607,-1.3858750014026475,1.435921253286358,-1.1810856398533762,1.0276874534212295,0.02563275753444255,0.0013204349970309943,-0.048687772479542965,0.05796749782054455,-0.00853616379313733,0.0005579845900916113,-0.0014058850323826735,7.462470562078915,0.2343738738208136,0.28084282164293123,2.0957812890815535,NORMAL,1.0,1.0
21.714134216308594,0.03339062870971543,-1.3857000678787037,1.4358243014978929,-1.180866881893026,1.02763228147909,0.02590856799798097,0.0013346613078837148,-0.048683151285258935,0.05796958472910463,-0.008535112981661114,0.0005643882551441132,-0.0014207585607336473,7.462807886478161,0.23438924104672626,0.2808326954491612,2.0958004543789195,NORMAL,1.0,1.0
21.721877574920654,0.033755324458400425,-1.3855316343890232,1.4357299647137092,-1.1806567100738656,1.0275785882733246,0.026172977801435918,0.0013483292186045033,-0.04867871363496946,0.057971608695084526,-0.0085341190559456,0.0005705466948232679,-0.001435046330307365,7.463137962428588,0.23440394515663832,0.2808227817135023,2.0958191629208356,NORMAL,1.0,1.0
21.730640411376953,0.034167424859675825,-1.3853409230067186,1.435621983973706,-1.1804192859273865,1.0275171180364395,0.026470987412448983,0.0013637695866198824,-0.04867370312042378,0.057973917731931925,-0.008533014783071446,0.0005775109365433888,-0.0014511846849733286,7.463517944242922,0.23442048522975176,0.2808113631517768,2.0958406478306015,NORMAL,1.0,1.0
21.738127946853638,0.03451903079329905,-1.3851778824304977,1.4355286905829008,-1.1802167734180964,1.0274639990846175,0.026724596030126897,0.0013769398773025476,-0.04866943150937361,0.05797590643727388,-0.008532088501333938,0.0005834572556066612,-0.001464948491792752,7.463848045818002,0.23443453394593283,0.2808014386578782,2.095859269189488,NORMAL,1.0,1.0
21.746131658554077,0.03489434064499327,-1.3850035177624926,1.4354279204038745,-1.1800006711047908,1.0274066128228767,0.026994627383478537,0.001390994483246282,-0.048664875423224466,0.05797804832453149,-0.008531115999184888,0.0005898088659233663,-0.0014796346273732574,7.464206423028056,0.23444946524609628,0.2807906592474541,2.095879442281129,NORMAL,1.0,1.0
21.754124402999878,0.035268578544387856,-1.384829306618779,1.4353262122436174,-1.1797852536152498,1.0273486816310733,0.02726318427703227,0.001405005253252433,-0.04866033601344595,0.05798020393440122,-0.008530163042139495,0.000596146819128817,-0.0014942731103014825,7.464569995937758,0.23446428738592034,0.280779718723303,2.0958998638498105,NORMAL,1.0,1.0
21.762154579162598,0.03564400183335945,-1.3846541953291125,1.4352229468152924,-1.1795692247269292,1.0272898523559668,0.027531876348084235,0.001419056678035854,-0.04865578596753517,0.05798238647649088,-0.008529223977739362,0.0006025092914990036,-0.0015089522605977771,7.464940989717173,0.23447908956126517,0.2807685501532949,2.0959206586627928,NORMAL,1.0,1.0
21.7702157497406,0.03599550684144875,-1.3844899217190203,1.435125134348085,-1.1793670262531977,1.0272341192551058,0.027782791519910744,0.0014322094867670236,-0.04865152926372926,0.05798444840018921,-0.00852836017464066,0.0006084703947510147,-0.0015226910480835264,7.465294065813577,0.2344928877731708,0.2807579167822864,2.0959404100849848,NORMAL,1.0,1.0
21.777886867523193,0.036377839674883235,-1.3843108882511637,1.435017501651763,-1.179147171349393,1.027172779006377,0.028054979563331785,0.0014465120792836396,-0.048646903101451665,0.05798671159947892,-0.008527437650470137,0.0006149586215265413,-0.0015376291289061713,7.465684416462596,0.23450782904730555,0.28074615632700295,2.095962204272278,NORMAL,1.0,1.0
21.786455392837524,0.03677657746249062,-1.3841237782737044,1.434903866048568,-1.1789179718578657,1.027108004437464,0.028338021503168626,0.001461424178290204,-0.04864208280966571,0.057989094827823676,-0.008526494558362723,0.0006217299749823895,-0.0015532019446229358,7.466098553759372,0.23452333674113116,0.28073367433994323,2.095985279981005,NORMAL,1.0,1.0
21.794159650802612,0.03713452029858865,-1.3839554655704052,1.4348006468597994,-1.1787123021830201,1.0270491556237793,0.028591377828599135,0.0014748069614320353,-0.048637759550470935,0.05799125436674097,-0.008525664584011447,0.0006278126102290723,-0.00156717611790066,7.466476471712471,0.23453719270125517,0.2807222798467562,2.096006297561289,NORMAL,1.0,1.0
21.802283763885498,0.037511372766047074,-1.3837779045125234,1.434690732309792,-1.1784958526034037,1.0269864771726884,0.02885736448836035,0.0014888929821699382,-0.04863321192481262,0.05799354879401738,-0.008524807861767725,0.0006342206770955221,-0.0015818830497561869,7.466880675238195,0.23455171384940343,0.2807100886878354,2.096028736567598,NORMAL,1.0,1.0
21.80999207496643,0.03786836532214363,-1.383609360750872,1.4345854294764395,-1.178290893450973,1.0269264165414387,0.029108610835082833,0.00150223310606631,-0.048628907830854155,0.05799574218461231,-0.00852401255460366,0.0006402948635992295,-0.0015958097767699703,7.467269586918557,0.23456540634512713,0.28069835492452716,2.0960502888259924,NORMAL,1.0,1.0
21.817627429962158,0.03822142454805592,-1.3834423459887246,1.4344801518949806,-1.1780882753790116,1.026866358556355,0.029356388004568103,0.001515422814455329,-0.048624654930582795,0.057997930621309944,-0.008523241662854304,0.0006463057311373643,-0.0016095781477136056,7.46765999284284,0.23457888712134453,0.280686572510413,2.096071888064192,NORMAL,1.0,1.0
21.826361179351807,0.03862459025419274,-1.3832512261480854,1.4343585464020225,-1.177857005833906,1.0267969712872034,0.029638465951910022,0.0015304802197734979,-0.04861980312231078,0.05800045325073984,-0.008522380512896836,0.0006531739889217692,-0.0016252945942218627,7.46811287056031,0.23459420684408855,0.280672900468267,2.0960969004045573,NORMAL,1.0,1.0
21.833911180496216,0.03897251870102204,-1.3830859438469607,1.4342524076153,-1.1776575146267314,1.0267363963527631,0.02988114631532178,0.0015434710109805381,-0.04861562012488893,0.058002650701588256,-0.008521653856222763,0.0006591048856333909,-0.001638852679777523,7.468509787269606,0.23460736376637958,0.28066091430918244,2.0961187854221652,NORMAL,1.0,1.0
21.84231996536255,0.03935936872149685,-1.3829017907016405,1.4341330899456204,-1.1774358108750007,1.0266682856998477,0.030150147092469787,0.0015579110832576342,-0.04861097369643479,0.058005116448836574,-0.008520863977098916,0.0006657031614451086,-0.001653921977647138,7.468957762887187,0.23462192279622993,0.28064738251551447,2.0961434462732216,NORMAL,1.0,1.0
21.84989857673645,0.03970743031277865,-1.3827357561938294,1.4340245555340427,-1.177236433156696,1.0266063172986266,0.030391421616601084,0.0015708997110156556,-0.04860679727763415,0.058007355394410154,-0.008520169650872935,0.0006716433111135083,-0.0016674754063664215,7.469366843355704,0.234634959078312,0.28063502232210813,2.0961659308171425,NORMAL,1.0,1.0
21.85744071006775,0.04005325054916658,-1.3825704637081888,1.433915607369469,-1.1770384325099446,1.0265440999890874,0.030630425740264394,0.0015838013259201627,-0.048602651687810194,0.05800959928653909,-0.008519495228914651,0.0006775484100172832,-0.0016809369746243613,7.469778968821665,0.2346478521479388,0.28062256712116374,2.096188550058415,NORMAL,1.0,1.0
21.865463972091675,0.04042050602099154,-1.3823945658192875,1.433798686054422,-1.176828263697441,1.026477315283012,0.03088345215334075,0.0015974989327832997,-0.04859825350438343,0.05801200361148902,-0.008518795947160514,0.0006838229686075374,-0.0016952279657921616,7.470222870171941,0.23466147946801308,0.28060914839809703,2.0962128779429365,NORMAL,1.0,1.0
21.87477135658264,0.04081892327042358,-1.3822033200233053,1.4336704153934254,-1.1766003875413982,1.0264040310235993,0.031157013081685392,0.0016123544563133912,-0.04859348730704145,0.05801463707805945,-0.008518057192774047,0.0006906338662111209,-0.0017107257892977192,7.4707117353825785,0.23467618716999106,0.2805943668368921,2.096239629210614,NORMAL,1.0,1.0
21.8817777633667,0.04116523852944274,-1.3820367232694146,1.433557705021795,-1.1764024205786663,1.0263396221466188,0.03139399895010377,0.0016252636060836464,-0.04858934884699314,0.058016947637953994,-0.008517431947001056,0.0006965573607334043,-0.001724192078674739,7.471142876131242,0.23468890708686782,0.2805813276842253,2.096263187503445,NORMAL,1.0,1.0
21.890408992767334,0.041558153604480924,-1.3818472996710411,1.4334284540061097,-1.1761779420707386,1.0262657441958989,0.03166195935110026,0.0016399056295749598,-0.048584658620610614,0.0580195935605979,-0.008516741727789875,0.0007032815362114402,-0.0017394649517899843,7.471639060383069,0.23470326573243053,0.2805663181421647,2.0962902616588606,NORMAL,1.0,1.0
21.897991180419922,0.041902675320294396,-1.381680844928054,1.433313913738592,-1.1759812252897737,1.0262002596234154,0.031896106671598166,0.001652740604587414,-0.04858055060232517,0.05802193521757473,-0.008516153385609111,0.0007091806416366195,-0.0017528520230454445,7.4720803158527085,0.23471579191897407,0.28055296742798447,2.096314305472709,NORMAL,1.0,1.0
21.906017065048218,0.042266701631895436,-1.3815045963825292,1.4331916555913322,-1.1757734904130692,1.0261303469639322,0.03214267713864056,0.0016662984728499368,-0.04857621469913537,0.05802443163061801,-0.008515548971620011,0.0007154168185856655,-0.001766992220404673,7.472552866785212,0.2347289620361334,0.2805386671092006,2.0963400211509593,NORMAL,1.0,1.0
21.914128065109253,0.042610776295822286,-1.3813376550627106,1.433074927201021,-1.1755772561578297,1.0260635813633272,0.03237493713395902,0.0016791097069577465,-0.04857212093656018,0.05802681239561141,-0.00851499407025962,0.0007213140793581624,-0.0017803529440449913,7.473005516229679,0.23474134846439773,0.28052496655189385,2.096364622482449,NORMAL,1.0,1.0
21.92190384864807,0.042985258331368556,-1.3811555675242329,1.432946582794561,-1.175363810171347,1.0259901546458277,0.0326268322051015,0.001693049182782848,-0.04856767044084441,0.058029427199358705,-0.008514408347947679,0.0007277356248100622,-0.0017948895005472033,7.4735048318434805,0.23475476092535666,0.28050985085414565,2.0963917257381515,NORMAL,1.0,1.0
21.93043565750122,0.04337003416225442,-1.380968044358893,1.432813291015716,-1.175144642146379,1.025913878556071,0.03288467178461033,0.0017073675244520478,-0.048563103186448284,0.05803213982911151,-0.008513826440945694,0.0007343370043239859,-0.0018098203386363015,7.474025151075717,0.23476846724979153,0.28049409650796525,2.096419932028792,NORMAL,1.0,1.0
21.938246250152588,0.043721592066026674,-1.3807963253439777,1.4326902415817457,-1.1749445269773668,1.025843446470735,0.03311937259995705,0.0017204459207591648,-0.048558935252453375,0.058034641527615435,-0.008513312541553304,0.0007403713622895576,-0.0018234575212730697,7.474507039911402,0.23478092370028492,0.28047950336112437,2.096446022423578,NORMAL,1.0,1.0
21.945817232131958,0.044061728608310445,-1.3806298322366022,1.4325700338729075,-1.1747510359797175,1.0257746250135904,0.03334563923887854,0.0017330959244840716,-0.048554907370192676,0.05803708331471963,-0.00851283160083801,0.0007462122400974947,-0.0018366474454599101,7.474979206575641,0.23479291466541183,0.2804652025211292,2.096471557013467,NORMAL,1.0,1.0
21.953465938568115,0.044404715851800496,-1.3804615892904786,1.4324476613775308,-1.1745560485124844,1.0257045479584177,0.033572986553787175,0.001745848441299765,-0.048550850429386345,0.05803956706684183,-0.008512362934631031,0.0007521045711804281,-0.0018499437421299625,7.475461274253299,0.23480494530752438,0.2804505997692735,2.0964975979163154,NORMAL,1.0,1.0
21.961488962173462,0.044763790430631945,-1.3802850704452956,1.4323182971564747,-1.1743520532227558,1.0256304492506398,0.0338101089769294,0.0017591953037167883,-0.04854660834097574,0.058042190696186505,-0.008511889950037137,0.000758275907308974,-0.0018638592210103555,7.475972386082346,0.23481747449489127,0.280435115102655,2.0965251765952733,NORMAL,1.0,1.0
21.970492362976074,0.04516588425806655,-1.380086932182886,1.432171905351205,-1.174123789406488,1.025546575165695,0.034074547679339616,0.0017741365676846453,-0.048541864369121425,0.05804515736135106,-0.008511381902406596,0.0007651897292245711,-0.0018794364752628748,7.476552593144289,0.23483142455277442,0.2804175346559564,2.0965564458951196,NORMAL,1.0,1.0
21.97753143310547,0.04547961352643398,-1.3799319879148906,1.4320565563541308,-1.173945817682509,1.0254804702484936,0.03428006145461398,0.0017857909071371059,-0.048538167669418,0.05804749337028465,-0.008511001470598877,0.0007705864009113205,-0.0018915865337447184,7.477011097965994,0.23484224979727789,0.28040364008380547,2.0965811288166756,NORMAL,1.0,1.0
21.98607611656189,0.04585969016516052,-1.379743862329368,1.4319154804636773,-1.173730363055684,1.025399601706601,0.03452807203528472,0.001799905868186421,-0.04853369484305267,0.05805034869657826,-0.0085105594743101,0.0007771269230925782,-0.0019063015091858601,7.47757342780461,0.23485529457303533,0.2803865972293026,2.096611368954387,NORMAL,1.0,1.0
21.99408793449402,0.04621530411100117,-1.3795674307615253,1.4317821544821023,-1.1735289322771514,1.025323155465612,0.03475915072440039,0.0018131083302026809,-0.04852951559556809,0.058053045623565336,-0.008510164802733707,0.0007832489626821438,-0.0019200648844265404,7.478106414358976,0.2348674301731964,0.28037044183392534,2.096639999474937,NORMAL,1.0,1.0
22.001625776290894,0.04654920305603233,-1.3794014047922356,1.4316557923542625,-1.1733399424357671,1.0252506840350941,0.034975255331639164,0.0018255010436211716,-0.04852559664275987,0.05805560045127659,-0.008509810967440827,0.0007889992977396887,-0.0019329838823342856,7.478612922092585,0.2348787631865328,0.2803550874712689,2.096667179937029,NORMAL,1.0,1.0
22.01005458831787,0.04692178544451602,-1.3792157195226948,1.4315134363666695,-1.1731292219752834,1.0251690186249562,0.03521539683695962,0.0018393254050933457,-0.048521229585829447,0.05805847737828505,-0.00850943541838007,0.0007954181994810863,-0.0019473951231689477,7.479185092906343,0.23489133844026466,0.2803377408738522,2.0966978525227566,NORMAL,1.0,1.0
22.017593383789062,0.04725432021280342,-1.3790496112515083,1.4313851681310685,-1.1729413007994447,1.0250954157119034,0.03542882509439531,0.0018516601656983224,-0.048517337288138056,0.05806106859411106,-0.008509117538155461,0.0008011492087770484,-0.0019602533934612765,7.47970202320076,0.23490249868942256,0.2803220675580929,2.0967255358620878,NORMAL,1.0,1.0
22.026338815689087,0.04763923795822839,-1.3788568826440837,1.4312352558689274,-1.1727239571784318,1.02500936987412,0.03567479894751327,0.001865933631814148,-0.048512838269036934,0.05806409602131393,-0.008508770123679066,0.000807785350930899,-0.001975132556615592,7.480307807636924,0.23491534196682543,0.28030369856125353,2.0967579448572518,NORMAL,1.0,1.0
22.03390598297119,0.047971561255495954,-1.3786900926417303,1.4311045781889302,-1.172536469631715,1.0249343438132938,0.03588622420702983,0.001878253027702441,-0.04850895961660975,0.05806673425180989,-0.008508488045097727,0.0008135167102645521,-0.0019879746977245656,7.480837269649062,0.23492636527447278,0.2802876425345985,2.096786242494898,NORMAL,1.0,1.0
22.042298316955566,0.04833931961430828,-1.3785050867316098,1.430958608592924,-1.1723291655918102,1.0248505157017833,0.03611916606590463,0.0018918819234120235,-0.048504673572168644,0.05806968053138922,-0.008508195343298084,0.0008198612527617902,-0.0020021819293738257,7.48143020421411,0.23493849327222627,0.2802696603387209,2.096817902182936,NORMAL,1.0,1.0
22.050477743148804,0.04867369839375008,-1.3783364757857672,1.4308246418669293,-1.172140840245758,1.0247735597289842,0.03633001683119681,0.001904270036489117,-0.048500782277877,0.05807238405227891,-0.008507947087936571,0.0008256317511051801,-0.002015095800367172,7.481975763288814,0.23494945563824637,0.28025311375913414,2.0968470047320644,NORMAL,1.0,1.0
22.057480812072754,0.04900246076368853,-1.3781703246824641,1.430691760971814,-1.1719558322152994,1.0246972076801057,0.036536434991359466,0.0019164465644380692,-0.04849696174701425,0.05807506532341363,-0.008507719736190711,0.0008313069583528236,-0.0020277892230813966,7.482518181985606,0.23496017333162167,0.2802366614143169,2.0968759142915703,NORMAL,1.0,1.0
22.0659921169281,0.04937298479530895,-1.3779826212865476,1.4305406080377465,-1.1717475099107164,1.024610332655166,0.03676800203870908,0.0019301656466445673,-0.04849266242993261,0.058078115028857555,-0.008507483551391231,0.0008377049445614758,-0.0020420908780475473,7.483136710347628,0.23497218009599205,0.28021789943053577,2.096908850125142,NORMAL,1.0,1.0
22.074321746826172,0.04973473424104195,-1.3777989018392556,1.430391601468133,-1.171544315697652,1.0245246661572467,0.03699297584969679,0.0019435555284974667,-0.04848847170673557,0.058081121313791756,-0.008507273625717338,0.0008439532633136371,-0.0020560496156274946,7.483748013271198,0.23498382809596172,0.2801993555546871,2.0969413704522597,NORMAL,1.0,1.0
22.08184504508972,0.05006072403659363,-1.3776329492303678,1.4302561034359078,-1.1713613756533856,1.0244467442854177,0.03719475999795933,0.001955618123814041,-0.04848470107646654,0.058083855087310544,-0.008507102089046542,0.0008495854265423431,-0.002068624952748363,7.484305215144882,0.23499426129665726,0.2801824520067653,2.096970986746314,NORMAL,1.0,1.0
22.090131044387817,0.05041894230606708,-1.377450154751032,1.4301058657950196,-1.1711605367453017,1.0243603218201054,0.03741544129531655,0.0019688692330563037,-0.04848056414724944,0.05808688641543978,-0.008506933037421827,0.0008557759827307296,-0.002082439681308482,7.484924471507222,0.23500565625836806,0.2801636651168901,2.097003873060565,NORMAL,1.0,1.0
22.098236322402954,0.0507685104156738,-1.3772713306435327,1.4299578904382935,-1.1709647402051655,1.0242751758097322,0.0376297188349379,0.0019817962602186857,-0.048476533760296356,0.05808987241109811,-0.008506787861211965,0.0008618185779013214,-0.0020959169625598194,7.485535858998884,0.23501670526466997,0.2801451161953162,2.097036313003448,NORMAL,1.0,1.0
22.106261253356934,0.051113791841836675,-1.3770942647964874,1.4298103963355073,-1.1707715349684935,1.024190282080724,0.0378403135917612,0.0019945607685062745,-0.04847255934583024,0.05809284913852987,-0.008506663824838424,0.0008677884886606466,-0.0021092252718313853,7.486146670591584,0.23502754969719847,0.2801265840909613,2.0970686948367434,NORMAL,1.0,1.0
22.113473176956177,0.05142339080585752,-1.3769351266075744,1.4296770104667875,-1.170598459880084,1.024113487462906,0.03802824259398803,0.002006002755121335,-0.04846900128025655,0.05809554162076949,-0.00850656910402499,0.0008731425920344724,-0.002121155156851329,7.486700250393622,0.23503721469358285,0.28010978791677277,2.097098019334207,NORMAL,1.0,1.0
22.123111963272095,0.05181455442257943,-1.376733556483541,1.429506939496376,-1.170380013184588,1.0240155427458122,0.03826444711246911,0.0020204545418964766,-0.048464513555468006,0.05809897543604304,-0.008506471929355611,0.0008799087151784091,-0.0021362238461414716,7.487407697841345,0.2350493460287001,0.2800883226689153,2.097135463226707,NORMAL,1.0,1.0
22.129720211029053,0.052118399820453645,-1.3765765880912564,1.4293736351499102,-1.1702105064556672,1.023938749121021,0.038446961799463705,0.0020316767212023063,-0.048461033653708484,0.05810166766671027,-0.008506413929565946,0.0008851655312266944,-0.002147925627593746,7.487963452600696,0.23505870735584838,0.28007145968034425,2.0971648542029473,NORMAL,1.0,1.0
22.138227939605713,0.052480970815260854,-1.3763888259861898,1.4292131860363018,-1.1700084444458718,1.0238462911632709,0.03866363668936631,0.0020450637403231532,-0.04845688820301669,0.05810490912199155,-0.00850636490612574,0.0008914395145430135,-0.00216188547235849,7.488633803331743,0.23506980660519147,0.2800511192170921,2.097200278030004,NORMAL,1.0,1.0
22.14589238166809,0.05280679080863104,-1.3762196686276968,1.4290677101717193,-1.169827058496813,1.0237624360658975,0.038857301477984225,0.0020570899724028356,-0.04845316956910446,0.05810784914353328,-0.008506339752459999,0.0008970785667599831,-0.0021744270115462926,7.489242923072878,0.2350797141170399,0.28003263643679854,2.0972324406637335,NORMAL,1.0,1.0
22.154080152511597,0.053154000948419114,-1.3760389562619857,1.4289113297599851,-1.1696339709358667,1.0236722683884383,0.03906257563268611,0.002069901694111055,-0.04844921382006541,0.05811101078947252,-0.008506332819673466,0.0009030888125734541,-0.0021877884966475013,7.4898990852908724,0.2350902020969371,0.28001272604466043,2.097267060671706,NORMAL,1.0,1.0
22.161630868911743,0.053473406746935376,-1.3758723012329772,1.4287662297551553,-1.1694565369925305,1.0235885798446294,0.039250393051119714,0.002081683764044481,-0.048445581334736615,0.058113945632103085,-0.008506344709303922,0.000908618603397288,-0.00220007692827406,7.490509178524586,0.23509978603520584,0.2799942134596658,2.0972992258533987,NORMAL,1.0,1.0
22.170217514038086,0.05383570732083111,-1.375682779885703,1.428600191626368,-1.1692555002996772,1.0234927852826288,0.03946223750686319,0.002095043797040728,-0.04844146867283754,0.05811730558936873,-0.008506379582338576,0.0009148919237085707,-0.0022140121114919108,7.491208776707516,0.23511058209312963,0.2799729849209412,2.097336081880756,NORMAL,1.0,1.0
22.17777705192566,0.054153849488424666,-1.3755159282724794,1.428453109005741,-1.1690791679663903,1.0234079004883774,0.039647200800867775,0.0021067716582328275,-0.04843786408653343,0.05812028350512667,-0.008506429121555786,0.0009204013598660542,-0.002226245766024316,7.491829794629742,0.2351199961337624,0.2799541408617997,2.0973687736384026,NORMAL,1.0,1.0
22.18532633781433,0.05447078810081705,-1.375349304111763,1.4283053822673046,-1.168903693095097,1.0233226188671871,0.039830466159482415,0.002118451591370393,-0.0484342795686722,0.058123276018349594,-0.008506496224377331,0.0009258905726676174,-0.0022384303229178995,7.492454732084532,0.23512931261503614,0.2799351779812304,2.0974016489423954,NORMAL,1.0,1.0
22.193378925323486,0.05480800107919055,-1.375171574086636,1.4281468803242259,-1.1687172052922878,1.0232310887776854,0.04002434811870845,0.0021308747569321173,-0.04843047290861834,0.05812648864307057,-0.00850658725037749,0.0009317315421894162,-0.002251391263990529,7.493126570312523,0.23513915670723562,0.2799147921562735,2.0974369665296804,NORMAL,1.0,1.0
22.20240068435669,0.055184743833192065,-1.3749724586154286,1.4279681695285646,-1.16850911958265,1.0231278538295514,0.04023959150340944,0.0021447494100234506,-0.048426228882667635,0.05813011328755809,-0.008506713117471136,0.000938257886190603,-0.002265867869221171,7.493885678322523,0.23515007079539182,0.27989175860816723,2.0974768413142493,NORMAL,1.0,1.0
22.209419012069702,0.05547704844914552,-1.3748175652815422,1.4278283195195494,-1.1683478659945459,1.0230470415736703,0.04040558751298573,0.0021555108571476756,-0.0484229426083157,0.05813295162734513,-0.008506828517374481,0.0009433219271451665,-0.002277097233675734,7.494480891088806,0.23515847723469843,0.27987369843083404,2.097508084808237,NORMAL,1.0,1.0
22.218422889709473,0.05585104785013931,-1.3746188597244655,1.4276478510096102,-1.1681417966589023,1.0229427243668436,0.040616679341464894,0.00216927544744531,-0.04841874635621335,0.058136616901022196,-0.008506999007149907,0.0009498017543372392,-0.0022914617078823234,7.495250478731984,0.23516915415985085,0.2798503477920345,2.0975484532615587,NORMAL,1.0,1.0
22.2260422706604,0.05616665464177681,-1.3744507174668261,1.4274942103692871,-1.167968124876043,1.022853884751779,0.04079366648642956,0.0021808869959767953,-0.048415212794220945,0.058139739676931854,-0.008507163015971646,0.0009552702219448854,-0.0023035805793345816,7.49590697444046,0.23517809459327993,0.2798304290639175,2.097582864880885,NORMAL,1.0,1.0
22.233579874038696,0.05647807198294022,-1.3742843893540526,1.4273413895943716,-1.1677969626845197,1.0227654919009708,0.04096726270318694,0.002192340822026063,-0.04841173299994401,0.058142848041532566,-0.008507343094008185,0.0009606663407019137,-0.002315536034810048,7.4965611472385,0.23518685351392005,0.27981058133677567,2.0976171326354907,NORMAL,1.0,1.0
22.241639137268066,0.056810154269842345,-1.3741065619780946,1.4271770830546837,-1.1676146696124812,1.022670425145385,0.041151225094531535,0.0022045507472885357,-0.04840802991965721,0.0581461926260823,-0.008507555281918421,0.000966420732117115,-0.0023282820738914655,7.497265781963054,0.23519612437663392,0.2797892032308161,2.097654019545104,NORMAL,1.0,1.0
22.25017762184143,0.057160976388638984,-1.3739181757434515,1.4270019845459019,-1.1674223482466628,1.0225690794344386,0.04134425991317092,0.002217445236509176,-0.04840412655507908,0.058149759963724984,-0.008507802273886709,0.0009724999969187766,-0.0023417443417313886,7.498018155235247,0.2352058401232889,0.2797663775839416,2.097693378348793,NORMAL,1.0,1.0
22.258429765701294,0.05747839421394207,-1.3737472581184864,1.4268422017380298,-1.1672485720336099,1.0224765669502511,0.04151774140601834,0.0022291079760022063,-0.04840060267129358,0.058153018133935086,-0.008508046167922736,0.0009780004708471162,-0.002353922109122318,7.498706012540258,0.23521456089915255,0.2797455100329929,2.097729338065545,NORMAL,1.0,1.0
22.265977382659912,0.05780739142119104,-1.3735696298778644,1.4266752185942775,-1.1670686937705388,1.022379853478642,0.041696360753926895,0.0022411921618542725,-0.04839695819654539,0.05815642614422718,-0.008508319644541257,0.0009837015912102275,-0.0023665414891005363,7.499426167784941,0.23522352919083922,0.27972366353855216,2.0977669620896884,NORMAL,1.0,1.0
22.274681091308594,0.05816194743090019,-1.3733776540824343,1.4264936870062395,-1.1668751161710973,1.0222746765588557,0.04188748259928126,0.0022542105316779542,-0.04839303981196388,0.058160134684172936,-0.008508638187414036,0.0009898455210385006,-0.002380138274301982,7.500210554444765,0.23523311306013578,0.2796998696283737,2.097807914263553,NORMAL,1.0,1.0
22.28203797340393,0.05846078009469077,-1.3732154032972972,1.4263394053243392,-1.1667121869532127,1.0221852572821324,0.04204744654365948,0.002265179155307988,-0.04838974480059042,0.058163289569494424,-0.008508926057861532,0.0009950237074234773,-0.0023915957903136013,7.500878398128659,0.23524112478296655,0.2796796119385436,2.097842759586828,NORMAL,1.0,1.0
22.28954529762268,0.05876490815276647,-1.3730498532551845,1.4261811774689503,-1.1665465852086612,1.0220935216193743,0.04220918011393793,0.0022763386193180458,-0.04838639859755619,0.05816652812715591,-0.008509237427948818,0.0010002934601861992,-0.0024032541633842632,7.501564456398891,0.2352492160712133,0.2796588027139964,2.0978785343583852,NORMAL,1.0,1.0
22.29805064201355,0.05910846620188002,-1.3728623193895664,1.426000952407112,-1.1663597777660952,1.0219889965014288,0.04239057461104115,0.002288940592949936,-0.048382627429643284,0.05817022068252857,-0.008509611721714147,0.0010062461256248399,-0.002416421437981551,7.502347271809743,0.23525828004737173,0.27963505995249605,2.0979193291369627,NORMAL,1.0,1.0
22.30610227584839,0.05943271256023319,-1.3726848147556932,1.4258294024653948,-1.1661837323439617,1.0218894668544005,0.04256048455447667,0.002300829979363268,-0.048379077009335344,0.05817373931497576,-0.008509987158253131,0.0010118638133420007,-0.0024288460794362247,7.503093754047067,0.23526675961005153,0.2796124204849478,2.097958205694594,NORMAL,1.0,1.0
22.314152479171753,0.059755938330964736,-1.3725073679233315,1.4256569733954991,-1.1660084977684777,1.0217893918568677,0.04272859893448264,0.0023126778366359055,-0.048375546375741894,0.05817727982205737,-0.008510383087848909,0.00101746338377674,-0.0024412292465974088,7.503845369143271,0.2352751394369877,0.2795896266980813,2.097997325558893,NORMAL,1.0,1.0
22.32217526435852,0.06007710004425677,-1.3723305531171528,1.4254842299105748,-1.16583464008013,1.0216890988169725,0.042894377593951864,0.0023244459471725236,-0.0483720469400384,0.058180830735470285,-0.008510798155791982,0.001023026693120568,-0.0024535310350895655,7.5045996527331456,0.23528339288988423,0.2795667534046623,2.098036560516362,NORMAL,1.0,1.0
22.32970905303955,0.06037780660843244,-1.3721645418456594,1.4253211986364744,-1.1656720921679404,1.021594411868148,0.043048443304949474,0.0023354608142780245,-0.04836877832747781,0.05818418570796387,-0.008511206575186439,0.0010282351490957008,-0.0024650472630777217,7.505312705277518,0.23529105426731,0.27954513177978624,2.0980736292453077,NORMAL,1.0,1.0
22.33775758743286,0.060698112292360565,-1.3719872176755898,1.425146157413907,-1.1654992053923419,1.02149271422017,0.04321130776030967,0.0023471896131493156,-0.04836530525522008,0.05818779191354187,-0.008511662889772766,0.0010337824528818137,-0.002477311943875429,7.506079543433022,0.23529914374092573,0.2795218807571715,2.0981134710933294,NORMAL,1.0,1.0
22.346308946609497,0.06103735163798951,-1.3717988507641634,1.424959198548571,-1.1653163909419728,1.0213840518913593,0.043382384023445394,0.0023596072042262883,-0.048361636689171136,0.05819164840969501,-0.008512170375687498,0.0010396568821621607,-0.0024902992418889026,7.506900012494053,0.23530763053083598,0.2794970054181793,2.0981560734657805,NORMAL,1.0,1.0
22.353853940963745,0.061335741279241573,-1.3716326835124233,1.424793404725332,-1.1651558422520998,1.0212876557166983,0.04353164150947859,0.0023705256605255965,-0.04835841834610335,0.05819507251737924,-0.008512637560444838,0.0010448232031637608,-0.002501720694433344,7.507628812035749,0.23531502599258045,0.2794749109718376,2.098193893853294,NORMAL,1.0,1.0
22.361876010894775,0.06163210333048352,-1.3714671929998004,1.424627477850669,-1.1649966215466119,1.021191149007466,0.043678742116918405,0.002381366321015309,-0.04835522984238644,0.05819850338984952,-0.008513121060954967,0.0010499536729213688,-0.0025130627437566105,7.508359325204367,0.23532230634389395,0.2794527661451347,2.0982317826399774,NORMAL,1.0,1.0
22.369900465011597,0.06196744194182235,-1.371279387625919,1.4244382014220849,-1.164816749829601,1.021081021076367,0.0438437988540227,0.00239362834839431,-0.04835163172643713,0.058202422051591436,-0.00851369183472599,0.001055757911198068,-0.0025258943482897233,7.50919400075615,0.2353304655305394,0.27942746570995225,2.098275049155668,NORMAL,1.0,1.0
22.37742042541504,0.062262108637658624,-1.3711138726461527,1.4242705309832553,-1.164658951275433,1.020983428070946,0.04398760340375883,0.002404399313693171,-0.04834847867209886,0.058205897911374774,-0.008514214370891015,0.0010608572534522075,-0.0025371678417176386,7.509934597631464,0.23533756556379937,0.27940501877080204,2.098313417218715,NORMAL,1.0,1.0
22.385475397109985,0.06257676304114111,-1.370936620609586,1.4240900793444136,-1.1644907187181452,1.0208783576272138,0.04413987295098341,0.002415896887436969,-0.04834512082879885,0.05820964354491,-0.008514794279552092,0.0010663014656298922,-0.0025492041980230413,7.510732894050101,0.23534507468829238,0.2793808249567579,2.098354751969575,NORMAL,1.0,1.0
22.394217252731323,0.06291710072801725,-1.370744300384896,1.423893246165369,-1.164309072822542,1.0207637036566766,0.04430305300274767,0.0024283282482818404,-0.048341499643371644,0.058213734991880456,-0.008515447318242003,0.0010721887739747644,-0.002562220919180655,7.511605115976857,0.23535311161137898,0.27935439307130533,2.098399888165027,NORMAL,1.0,1.0
22.401846170425415,0.06321312754737167,-1.3705765060828505,1.4237206302565386,-1.164151349895731,1.0206631172194527,0.044443688073248375,0.002439137094891962,-0.04833835914681945,0.05821732809024348,-0.008516037392193865,0.0010773084160660001,-0.002573541180768533,7.512371260539121,0.2353600295147347,0.2793311778553643,2.0984395126931807,NORMAL,1.0,1.0
22.409403800964355,0.06350548130207266,-1.370410319047802,1.4235488566503571,-1.163995837262852,1.0205629854806855,0.0445813767055743,0.0024498081556934732,-0.048335266172988556,0.05822090839821416,-0.008516640523902422,0.0010823634090835286,-0.002584719443541337,7.513134800790708,0.23536679461308538,0.27930804354169386,2.0984789820738667,NORMAL,1.0,1.0
22.418009996414185,0.06383729245476866,-1.3702211240789521,1.423352320248208,-1.163819645458219,1.020448374498094,0.04473618379938519,0.002461914979641396,-0.048331766222572056,0.058225010724524094,-0.00851734988277266,0.0010880992099239423,-0.0025974045675391574,7.514009785763221,0.235374391348316,0.2792815350818848,2.0985241875882568,NORMAL,1.0,1.0
22.42552161216736,0.06412593628771861,-1.3700560361571863,1.4231799736357593,-1.163666647147794,1.0203478308908502,0.044869568799839187,0.0024724428758300856,-0.04832873079522095,0.05822861336983038,-0.008517988678218897,0.00109308749125589,-0.0026084378818267686,7.514778270652355,0.23538092869280014,0.279258255372946,2.098563869376901,NORMAL,1.0,1.0
22.433605194091797,0.06443554806309536,-1.369878425304728,1.4229936671752947,-1.1635028197961885,1.020239102305353,0.0450113000929932,0.00248373150881044,-0.048325484528318086,0.0582325133987937,-0.00851869661681126,0.0010984366998024458,-0.002620271152368644,7.515610242986488,0.23538786666846787,0.27923305483880406,2.0986068071269237,NORMAL,1.0,1.0
22.442357063293457,0.0647695692062542,-1.3696861882866584,1.422790984443323,-1.1633264126009628,1.0201207679353483,0.045162626192369576,0.0024959053965431617,-0.04832199372922558,0.05823676289949445,-0.008519487086771445,0.0011042058747743595,-0.0026330356071868613,7.516516794616091,0.23539526455134133,0.2792055981803896,2.0986535678737304,NORMAL,1.0,1.0
22.449881315231323,0.06505574622141437,-1.3695209652539497,1.4226159256540152,-1.163175555095037,1.0200185206995618,0.04529095631153532,0.0025063316041034887,-0.04831901250618419,0.05824043888433442,-0.008520186664793407,0.0011091471643166827,-0.0026439703307685777,7.517300993915074,0.23540153015774204,0.27918184967074555,2.0986939960129445,NORMAL,1.0,1.0
22.4581401348114,0.0653688015964458,-1.369339665795849,1.4224229219105489,-1.1630108310112044,1.0199057483132241,0.04542992553610654,0.002517732876233381,-0.048315761557314985,0.058244497835542974,-0.008520975851052536,0.001114550854473573,-0.002655930640547715,7.518166859127225,0.23540830667440069,0.2791556307182419,2.0987386114046442,NORMAL,1.0,1.0
22.466679334640503,0.0656721393293551,-1.3691634305280038,1.42223439615196,-1.1628515259359726,1.019795547793281,0.04556315378043692,0.002528776033090675,-0.04831262193006632,0.05824846890800037,-0.008521764658010179,0.0011197850366351878,-0.002667518308176835,7.5190139173415185,0.23541479473006566,0.279129984046229,2.098782234790912,NORMAL,1.0,1.0
22.473747730255127,0.06595736859112455,-1.3689972035338702,1.422055752607787,-1.1627020095667715,1.019691083016658,0.04568713085863076,0.002539156137843835,-0.04830967922610689,0.05825223762686736,-0.008522528299918699,0.0011247050890976049,-0.002678413023697223,7.519817732229299,0.23542082460504907,0.2791056492584658,2.0988236104591826,NORMAL,1.0,1.0
22.4813551902771,0.0662427942826768,-1.3688303585588935,1.421875641398224,-1.1625526644486774,1.019585719726833,0.04580991846541316,0.0025495396722254623,-0.048306743853585785,0.05825604308437174,-0.008523313999833276,0.0011296268468847207,-0.002689314116803439,7.5206292811439015,0.23542678917867035,0.2790810829245378,2.0988653640556283,NORMAL,1.0,1.0
22.49045991897583,0.06658313598188663,-1.368630745478632,1.4216591001294607,-1.1623749492473812,1.0194589915526349,0.04595464169874655,0.0025619161013825404,-0.04830325615227407,0.05826062600888943,-0.008524279386172255,0.0011354932553720857,-0.002702311164944422,7.521606465247976,0.2354338095429409,0.27905150616749436,2.098915612926611,NORMAL,1.0,1.0
22.498509168624878,0.06688287410086854,-1.3684543376408025,1.4214667750988632,-1.1622187688208365,1.0193463863984231,0.04608055744751085,0.0025728115420248277,-0.04830019593546566,0.05826470359329941,-0.008525155629543884,0.0011406576277871424,-0.0027137564041224234,7.522475717865251,0.23543990874914858,0.2790251994718248,2.09896028769931,NORMAL,1.0,1.0
22.506447792053223,0.06717743163055463,-1.3682804153654815,1.4212762819376232,-1.162065596275059,1.019234808015003,0.04620287112225067,0.0025835145742506157,-0.048297199183989586,0.05826874906355709,-0.008526040799723666,0.0011457306859540613,-0.0027250027503008265,7.523337929810631,0.2354458253819651,0.27899910892659213,2.0990045785707983,NORMAL,1.0,1.0
22.514098167419434,0.06746029249335384,-1.3681128668489508,1.421091946302278,-1.16191879816042,1.0191267928318488,0.04631898042649908,0.0025937887463672537,-0.04829433145575392,0.05827267019832458,-0.008526913567904403,0.001150600304466731,-0.0027358015482149183,7.52417343468979,0.23545143430333035,0.2789738294930394,2.099047476845206,NORMAL,1.0,1.0
22.5229709148407,0.06776515521671571,-1.3679316938397785,1.4208917127024436,-1.1617609067369379,1.0190094133513328,0.0464426237479856,0.002604857820112152,-0.048291251842562215,0.0582769367429817,-0.008527879503058743,0.001155846428396858,-0.0027474393007322897,7.52508228208447,0.2354573988006704,0.27894633431431354,2.099094118001052,NORMAL,1.0,1.0
22.529630661010742,0.06803154174808367,-1.3677728770324644,1.4207154117654541,-1.1616232226223702,1.018906021539409,0.046549374426652364,0.002614526241065351,-0.04828857054497571,0.058280699624074596,-0.00852874527381716,0.0011604284500483185,-0.002757607451589933,7.525883598607581,0.23546254124753896,0.27892209516426597,2.099135221286012,NORMAL,1.0,1.0
22.537444829940796,0.06831737958200025,-1.3676019282963847,1.4205248344388313,-1.1614757796957218,1.0187942130287417,0.04666256696500129,0.0026248968311900402,-0.04828570362437803,0.058284773894721906,-0.008529697109851127,0.001165342899564139,-0.002768517260149882,7.526750950139515,0.23546798653892384,0.2788958616252921,2.099179691478146,NORMAL,1.0,1.0
22.546675443649292,0.06863528262557696,-1.3674111429419675,1.420311153632331,-1.1613121603557206,1.01866879523432,0.046786790700711234,0.002636426120692397,-0.04828252765327324,0.05828935040929185,-0.008530783873196028,0.0011708059461832277,-0.002780649992186815,7.52772485396232,0.23547395334543667,0.2788664092498958,2.0992295998456685,NORMAL,1.0,1.0
22.55369734764099,0.06890854214028062,-1.3672465870062194,1.4201260127028463,-1.1611718289636248,1.0185600816254583,0.04689214805892068,0.002646332373782688,-0.04827980843449847,0.05829332284554737,-0.008531742035341076,0.0011754994531433095,-0.002791078165433857,7.5285698700982655,0.23547900617017237,0.278840858014098,2.099272882197287,NORMAL,1.0,1.0
22.561339616775513,0.06918494842500027,-1.367079599508922,1.4199373441456966,-1.161030178085332,1.018449251608546,0.04699736402516302,0.0026563489454094354,-0.04827706817642529,0.058297377880560844,-0.008532734123285635,0.0011802447156861093,-0.002801625768242992,7.52943211392488,0.23548404482639004,0.2788147891171829,2.09931702701611,NORMAL,1.0,1.0
22.570212364196777,0.06950459125115602,-1.366885808956473,1.4197173935153677,-1.1608667470229346,1.0183199879945064,0.04711731677067377,0.0026679275948532544,-0.04827391237545415,0.05830211413275377,-0.008533910498578616,0.0011857292767977984,-0.002813822496050237,7.530438745672818,0.23548977985319788,0.2787843590341901,2.0993685389586267,NORMAL,1.0,1.0
22.578524112701416,0.06978463287462108,-1.3667154176714318,1.4195231150998857,-1.1607239014482533,1.018205760172364,0.04722087025277433,0.0026780675162389137,-0.04827115929427102,0.058306305587499815,-0.008534967140713872,0.0011905316346777488,-0.0028245075141315056,7.53132914977823,0.23549472247652378,0.27875744627920224,2.099414080880295,NORMAL,1.0,1.0
22.58607769012451,0.07007272940164506,-1.3665395224130166,1.419321692574654,-1.1605772813504476,1.0180872806613308,0.04732588236305638,0.002688494940024568,-0.04826833866626172,0.058310659166411136,-0.00853607988996963,0.0011954693938384675,-0.0028354993002334076,7.53225353810344,0.23549972648451228,0.27872951015938124,2.099461339071838,NORMAL,1.0,1.0
22.594345569610596,0.07034910669314459,-1.3663701995599011,1.419126963606697,-1.1604369486840351,1.017972688676947,0.047425154803206956,0.002698494202110337,-0.04826564405440851,0.058314875862858134,-0.008537172222491484,0.0012002036097055087,-0.0028460434644772916,7.533148400059638,0.23550444903436157,0.27870247009830595,2.0995070667137226,NORMAL,1.0,1.0
22.601910829544067,0.07063531893143865,-1.3661942414106616,1.4189237391215617,-1.1602919607894218,1.0178530450934613,0.04752642424898773,0.002708845133012571,-0.04826286538948919,0.05831928475164781,-0.008538329432676666,0.0012051034360350316,-0.0028569623803973866,7.53408354266392,0.23550925826157698,0.278674216835253,2.0995548308232364,NORMAL,1.0,1.0
22.610268115997314,0.0709304906478787,-1.3660121157722314,1.4187124642352167,-1.1601428004895087,1.0177286053080594,0.04762920468838724,0.0027195156160595042,-0.04826001257007364,0.0583238772651761,-0.008539550982095433,0.0012101535037806065,-0.002868222654602087,7.535057061654835,0.23551413024157622,0.27864480844693507,2.099604531581537,NORMAL,1.0,1.0
22.618292570114136,0.07121274157963942,-1.3658373270959159,1.4185088145212004,-1.1600005226291592,1.0176086018407404,0.047725888375068394,0.002729714728947764,-0.04825729702177749,0.05832831274898749,-0.008540746150104207,0.001214979435144509,-0.00287898965366714,7.535996720491266,0.23551870453224996,0.2786164271409361,2.099652481209088,NORMAL,1.0,1.0
22.62640357017517,0.07147916668735133,-1.365671760716554,1.4183151102701557,-1.1598665437736473,1.017494408774113,0.04781569829982144,0.002739338101757761,-0.04825474503781108,0.05833253961725822,-0.008541898953950236,0.0012195319345846055,-0.0028891526597689472,7.5368916428537025,0.23552294567913282,0.27858940093324125,2.0996981276813655,NORMAL,1.0,1.0
22.63393521308899,0.07175965390650775,-1.3654968402583532,1.4181096178903918,-1.1597258357668492,1.0173732128051531,0.0479087032325238,0.0027494653006654114,-0.04825207041872819,0.05833703229498527,-0.00854313884101582,0.0012243216490374067,-0.0028998518234568693,7.537842246409408,0.23552732923322817,0.2785606973613037,2.0997465927593004,NORMAL,1.0,1.0
22.64194631576538,0.07203804773713174,-1.3653225921695151,1.4179040536569985,-1.1595865302948911,1.0172519191787757,0.04799942534951562,0.0027595127182938753,-0.04824942819920159,0.05834153543571706,-0.008544396469824385,0.0012290724132837764,-0.002910470927165288,7.538794429314606,0.23553159643792365,0.2785319504463672,2.099795116411205,NORMAL,1.0,1.0
22.64945340156555,0.07229787754195265,-1.3651593861105755,1.4177107366031412,-1.159456835474795,1.0171378014555026,0.04808265041624957,0.002768886341163117,-0.04824697353656112,0.058345778451821574,-0.008545594851941823,0.001233503424130491,-0.002920381779176457,7.539691012443001,0.2355355029833469,0.27850488611997376,2.0998407868002276,NORMAL,1.0,1.0
22.658172369003296,0.07259837333177595,-1.3649699312138481,1.4174853833065035,-1.1593072349667375,1.017004710259081,0.04817713366531314,0.0027797224048492536,-0.04824414861702327,0.058350734667975995,-0.00854701087441556,0.0012386242664754637,-0.0029318436644137345,7.540737548263093,0.23553992811564142,0.27847330025068223,2.0998940713890617,NORMAL,1.0,1.0
22.6662495136261,0.0728755179479218,-1.3647945177886374,1.4172758280815798,-1.1591696389795374,1.0168808891499508,0.0482625703985751,0.0027897119716530287,-0.04824155668659555,0.058355353206469965,-0.008548345894055363,0.001243343589002224,-0.0029424148050445054,7.541712034005868,0.2355439199587329,0.2784438937649595,2.0999436644026463,NORMAL,1.0,1.0
22.67389750480652,0.07313684188645404,-1.3646285101827609,1.4170767095591015,-1.1590402360804637,1.0167631810494324,0.048341610399699524,0.0027991273496234827,-0.04823912476128788,0.0583597505001438,-0.008549630617090631,0.0012477902706900489,-0.002952382497321782,7.5426391528121925,0.2355476042873355,0.2784159209796684,2.099990826347512,NORMAL,1.0,1.0
22.68225622177124,0.07342122728262516,-1.3644471724202172,1.4168583151555938,-1.1588997925511137,1.0166340176649737,0.04842592574512847,0.0028093692360643056,-0.048236491738024356,0.058364583371380174,-0.008551057728784495,0.001252625693401235,-0.0029632298785277674,7.543657320205362,0.23555152475478638,0.2783852059999308,2.1000425970782555,NORMAL,1.0,1.0
22.68998122215271,0.07368291180400462,-1.3642796740865706,1.4166557651985643,-1.1587709140421787,1.0165141683963324,0.04850192344431983,0.002818789495415077,-0.048234081552925516,0.05836907492238668,-0.00855239804147486,0.00125707165975349,-0.002973211474807839,7.544602825208909,0.2355550492484943,0.2783566876395133,2.100090651980866,NORMAL,1.0,1.0
22.698185682296753,0.07395963421982468,-1.364101877260056,1.4164398975604833,-1.1586350044355964,1.0163863788568495,0.04858060952757704,0.0028287468068935273,-0.04823154629584751,0.0583738717048364,-0.008553844092150934,0.0012617693985600535,-0.0029837668292359383,7.545611765375885,0.23555868854101217,0.2783262608772638,2.1001419086885598,NORMAL,1.0,1.0
22.706214904785156,0.07422924117982578,-1.363927976558613,1.416227900240013,-1.1585029659032555,1.016260819889232,0.04865558869969669,0.002838443800763409,-0.0482290897386124,0.058378592493754905,-0.008555281788857201,0.0012663425693973907,-0.002994050980424448,7.5466038811085925,0.23556214634360614,0.2782963464837752,2.1001922884727997,NORMAL,1.0,1.0
22.71428608894348,0.07449905137664417,-1.3637532667357546,1.416014060795491,-1.158371205504889,1.0161341089109062,0.04872893643967095,0.002848143831987225,-0.048226644915705746,0.05838336440639672,-0.008556749505577551,0.0012709153598024373,-0.00300434314629663,7.547605879131344,0.2355655186882817,0.2782661391683105,2.100243147949921,NORMAL,1.0,1.0
22.7223162651062,0.0747662866726344,-1.3635795451695414,1.4158005811951118,-1.1582410807110153,1.0160075499049932,0.04879989536923496,0.0028577470375962533,-0.04822423705905488,0.05838813846446755,-0.00855823220087209,0.001275440636889308,-0.0030145374030948425,7.54860744641865,0.23556877080792984,0.2782359499353905,2.1002939635436557,NORMAL,1.0,1.0
22.729373931884766,0.07500016290101104,-1.3634269464164177,1.415612360086841,-1.158127512834003,1.0158959142159916,0.048860597921611716,0.002866147964601404,-0.048222141099580756,0.05839235614168727,-0.008559553842593227,0.0012793977803503165,-0.0030234594064600167,7.549491544256756,0.23557154410700598,0.27820930571991387,2.1003388010660324,NORMAL,1.0,1.0
22.73788857460022,0.07528107692319295,-1.3632429512743114,1.4153845454489633,-1.1579914964605282,1.0157607312642094,0.048931758527197305,0.002876234137731364,-0.04821963781116287,0.0583974717142548,-0.008561171414647292,0.0012841466939979528,-0.003034176250540664,7.550562905941393,0.23557478404376,0.27817702327109833,2.100393113195951,NORMAL,1.0,1.0
22.745997667312622,0.07554734264919859,-1.3630678288528286,1.4151668358730058,-1.1578629742250928,1.0156314789147294,0.04899741905543434,0.002885789919692187,-0.04821727963074872,0.05840237136199829,-0.008562735463331164,0.0012886437400300966,-0.003044334747891416,7.5515880558681685,0.23557776193830166,0.2781461388173588,2.100445059679016,NORMAL,1.0,1.0
22.754091262817383,0.07581186113088074,-1.3628931486539035,1.4149488210334333,-1.1577356885011958,1.0155019808665857,0.04906089797380035,0.002895278666734369,-0.0482149512273583,0.05840728869280492,-0.00856431944923904,0.001293107089391608,-0.0030544271100094956,7.55261591813883,0.2355806292649251,0.2781151781084384,2.1004971212578076,NORMAL,1.0,1.0
22.762112617492676,0.07607279365454155,-1.3627201349823241,1.414732045062484,-1.1576105182823815,1.015373154553179,0.04912178094016811,0.0029046345075593658,-0.04821266860868318,0.058412188862664534,-0.0085659119389479,0.0012975057394142525,-0.0030643832241847202,7.5536391967635605,0.23558336754349973,0.2780843609188512,2.1005489286435792,NORMAL,1.0,1.0
22.770164012908936,0.076333472837734,-1.3625465822382115,1.4145137533548429,-1.1574858623972197,1.0152433626587012,0.049180857761482524,0.002913976984589583,-0.04821040256371733,0.058417134212447146,-0.008567533103396986,0.0013018958579492101,-0.0030743302941294314,7.554670889444318,0.23558601243034571,0.27805329586199856,2.1006011399626887,NORMAL,1.0,1.0
22.778326511383057,0.07659648637227495,-1.3623707473557236,1.4142917335942102,-1.1573604944325742,1.0151112872486712,0.0492386669505262,0.0029233987411483925,-0.04820813103578089,0.058422175311875296,-0.008569199909738352,0.001306320866065816,-0.0030843671283996657,7.5557214899770395,0.235588587737797,0.2780216672064265,2.1006542855908417,NORMAL,1.0,1.0
22.78636622428894,0.07685429631757947,-1.3621976698539897,1.4140723531021098,-1.1572380071010997,1.014980715448377,0.04929355411252562,0.0029326297767086006,-0.04820591915017449,0.05842716772293141,-0.00857086459168855,0.0013106539089585087,-0.003094206119964333,7.556760870034641,0.23559101982524772,0.2779903820603445,2.100706841399591,NORMAL,1.0,1.0
22.793424129486084,0.0770795990424204,-1.3620458215255506,1.4138791934387012,-1.1571312936294453,1.0148656950489598,0.04934005771588377,0.0029406933374150155,-0.048203998288539274,0.05843157271952721,-0.008572344790783995,0.0013144369328395903,-0.0031028051535380613,7.5576770592392615,0.23559306938073843,0.2779628096660132,2.1007531499345173,NORMAL,1.0,1.0
22.802634477615356,0.0773552634343301,-1.3618592645077685,1.4136410030304207,-1.1570011511558538,1.0147237894031034,0.049395072056671485,0.0029505548045777544,-0.04820166372439722,0.05843701667131164,-0.008574188644210844,0.0013190608090574644,-0.0031133271918280946,7.558808167858764,0.23559547938582504,0.2779287754830254,2.100810298204077,NORMAL,1.0,1.0
22.810251712799072,0.07759698348778772,-1.3616949743102547,1.4134304399647224,-1.1568874243800804,1.0145982778146398,0.049441580210938654,0.002959197818020915,-0.04819963107063061,0.05844184030084186,-0.00857583563615175,0.0013231109034775514,-0.0031225544292463295,7.559809298233753,0.23559750286947784,0.27789865792117546,2.100860858119183,NORMAL,1.0,1.0
22.817808151245117,0.07785058224823113,-1.3615218901544497,1.4132077939465422,-1.1567685072806424,1.0144654969597755,0.04948860695422866,0.0029682613582088066,-0.048197513302965914,0.058446952124842556,-0.00857759441004709,0.001327355488288703,-0.0031322360242986105,7.56086911308021,0.23559953424376648,0.2778667807507618,2.1009143601294658,NORMAL,1.0,1.0
22.82595729827881,0.07810567076384055,-1.361347032586231,1.4129820211485646,-1.1566493098017159,1.0143307809406,0.04953405637952089,0.00297737374341384,-0.048195398639034624,0.05845214775098767,-0.008579395925899427,0.001331620205986386,-0.003141975493649413,7.561945101579394,0.23560148153996668,0.2778344232622118,2.1009686560378187,NORMAL,1.0,1.0
22.833966493606567,0.07835511496039571,-1.3611752976153797,1.412759453547833,-1.1565331619737524,1.0141979078136723,0.04957667393474006,0.0029862801861268067,-0.04819334612540221,0.058457281509226494,-0.008581189565495086,0.0013357857904284494,-0.0031515004902198805,7.56300707920291,0.23560329117698708,0.27780249321387546,2.1010222227967583,NORMAL,1.0,1.0
22.841473817825317,0.07858778767136813,-1.36101443274081,1.4125502309935187,-1.156425196624681,1.014072938497185,0.049614773012067855,0.002994583913183132,-0.04819144555562803,0.058462118261484196,-0.008582891610789904,0.0013396669513979463,-0.003160386043607815,7.564006519929904,0.23560489355431186,0.27777244899033365,2.1010726152197803,NORMAL,1.0,1.0
22.85014772415161,0.07885523700615547,-1.3608287032862159,1.412307776547045,-1.1563015464513169,1.013928042833432,0.04965656395299792,0.0030041240759728005,-0.04818927785466824,0.05846773642160073,-0.00858488325018372,0.001344122905618077,-0.0031706009128966636,7.565166080100293,0.2356066317623588,0.27773759818013943,2.1011310569209156,NORMAL,1.0,1.0
22.857689142227173,0.07908656225769475,-1.3606673399478328,1.4120963538298192,-1.1561949940060043,1.0138016248440698,0.04969095548830293,0.003012371570306587,-0.04818741782652359,0.05847264709421203,-0.008586636774639196,0.0013479723150155688,-0.0031794371898946914,7.566178425324886,0.2356080443674561,0.27770717790791855,2.101182058044753,NORMAL,1.0,1.0
22.86570119857788,0.0793310918569846,-1.360496026680147,1.411871105126408,-1.1560827658145727,1.0136668703504892,0.04972551175805018,0.003021085670392372,-0.04818546692294637,0.058477890819515654,-0.008588522111725406,0.0013520366189817823,-0.0031887790427430167,7.567258193571903,0.23560944453205312,0.277674737766356,2.101236434510387,NORMAL,1.0,1.0
22.874258279800415,0.07959084965134502,-1.3603131980433594,1.4116298194955337,-1.1559640136187561,1.0135224421471887,0.04976016263069866,0.0030303376936821605,-0.04818341207612598,0.058483521576661174,-0.008590561213485726,0.0013563484600212026,-0.0031987040731928404,7.568416227590728,0.23561082542028547,0.2776399533089761,2.1012947280511867,NORMAL,1.0,1.0
22.882272243499756,0.07983279951853293,-1.3601421044658557,1.4114031835441467,-1.1558538408291592,1.013386707650412,0.04979049964811203,0.003038950980267397,-0.04818151468308887,0.05848882341834655,-0.008592494838405174,0.0013603594158866999,-0.003207950057973048,7.569505254333131,0.23561201133389761,0.2776072483548066,2.101349525062671,NORMAL,1.0,1.0
22.88981008529663,0.08005920502324676,-1.359981292594284,1.411189429342243,-1.1557511354242016,1.0132586211541976,0.049817166550626735,0.0030470069569549963,-0.048179753954977714,0.058493835455821375,-0.008594334762311813,0.0013641079613384978,-0.0032166032823147165,7.570533532787732,0.23561303199360234,0.2775763737287671,2.101401245223251,NORMAL,1.0,1.0
22.89788293838501,0.08030041880454736,-1.3598091936117416,1.410959880708707,-1.1556421332607762,1.0131209976257152,0.049843717172042425,0.0030555856035485184,-0.04817789406867176,0.058499230366233015,-0.008596328089714276,0.0013680965480716246,-0.0032258238815550586,7.571639029554642,0.2356140231317556,0.2775431870706651,2.101456827611233,NORMAL,1.0,1.0
22.9065580368042,0.080558168983618,-1.3596244034750478,1.4107124940286182,-1.1555261463626274,1.0129725950040798,0.04986993110751351,0.0030647474661854197,-0.04817592528365508,0.05850505909665353,-0.0085984964736666,0.001372352580460172,-0.003235678272427502,7.572831862368188,0.23561497059281927,0.27750738617555115,2.101516776072727,NORMAL,1.0,1.0
22.914178609848022,0.0807680031328385,-1.3594732724784302,1.4105094679598957,-1.1554320999920358,1.0128507378159706,0.04988959908127133,0.003072202351066102,-0.048174336967097546,0.05850985398496114,-0.008600291595455011,0.0013758127371580526,-0.0032437020562219978,7.573811902311365,0.23561565534139836,0.27747797779452793,2.1015660108494845,NORMAL,1.0,1.0
22.922213792800903,0.08101948594047907,-1.3592913091274672,1.4102641867661287,-1.1553198420948299,1.0127034397095684,0.049911159220171884,0.0030811323862634022,-0.048172450844248565,0.05851566051507822,-0.008602478980030399,0.0013799540232743064,-0.003253320079172336,7.574997233831572,0.2356163718726035,0.277442416278291,2.101625535855602,NORMAL,1.0,1.0
22.930219888687134,0.08125347908299185,-1.359121167803121,1.4100340158956501,-1.1552158444386598,1.0125651367197808,0.049929217357051164,0.0030894368887220613,-0.04817071331118547,0.05852112302230539,-0.008604550110691563,0.0013838016370852427,-0.003262270888911769,7.57611085110548,0.23561693489524774,0.2774090134000225,2.101681436614376,NORMAL,1.0,1.0
22.938230991363525,0.08147170495828641,-1.3589617541866932,1.4098176342971482,-1.1551192548978693,1.0124350492984076,0.049944289268968385,0.0030971778614299994,-0.0481691082903286,0.058526270403649085,-0.008606513440130983,0.001387384954831622,-0.003270620086712663,7.577158901706182,0.23561736835835145,0.2773775835015501,2.10173402596252,NORMAL,1.0,1.0
22.94577646255493,0.08170442275705768,-1.35879095609796,1.4095850237230616,-1.155016684003325,1.0122951292177447,0.049958448823184766,0.0031054286499451905,-0.048167413413559006,0.05853181700195983,-0.008608641560591773,0.0013912007646310581,-0.003279525424579216,7.578286794224655,0.23561773151725143,0.2773437660835639,2.1017905999716042,NORMAL,1.0,1.0
22.954392671585083,0.08195205831836751,-1.3586082875432177,1.4093353586901478,-1.154908037361306,1.0121448627704699,0.04997130965670394,0.0031142034585182584,-0.04816562923707232,0.058537785485730354,-0.008610945864848871,0.0013952548367826946,-0.003289003606795926,7.579498800355775,0.23561800365749466,0.27730743463746566,2.101851368164408,NORMAL,1.0,1.0
22.961594581604004,0.08215787917794498,-1.3584557266303237,1.409126140750089,-1.1548181348434134,1.0120188701221164,0.04998023780625374,0.003121492715436965,-0.04816416181167529,0.05854279922363488,-0.008612892880863443,0.0013986192688840787,-0.0032968829672918813,7.580515581680879,0.23561813859293584,0.2772769616624719,2.1019023283235,NORMAL,1.0,1.0
22.97015404701233,0.08240111144186757,-1.3582745559170868,1.4088768574969956,-1.1547123656722478,1.0118686660242047,0.04998869120155496,0.0031301023230476672,-0.048162446148447835,0.058548787648688906,-0.008615231767458079,0.0014025891537316156,-0.0033061965110295507,7.581728412705235,0.23561818933271297,0.2772406206711674,2.101963090898624,NORMAL,1.0,1.0
22.97818684577942,0.08262800480530615,-1.358104680044079,1.408642296702772,-1.1546141730516208,1.0117272493822793,0.04999449243617854,0.0031381290425150283,-0.04816086415621758,0.0585544369053301,-0.008617451349766159,0.0014062862850734133,-0.003314886430781737,7.582870935776629,0.2356181285964424,0.27720639395068336,2.102020307900083,NORMAL,1.0,1.0
22.985723733901978,0.0828396787941542,-1.3579454224675036,1.4084216781473173,-1.154522984643652,1.011594164426381,0.04999805819216006,0.003145613342616911,-0.04815940464278402,0.058559763249805274,-0.008619555614043246,0.0014097300113210841,-0.003322995266316262,7.58394671145614,0.23561797617174624,0.2771741735260055,2.102074161813123,NORMAL,1.0,1.0
22.9939067363739,0.08306816683127716,-1.3577726569471562,1.4081815604255097,-1.1544250133062541,1.0114492350131414,0.04999987153865192,0.0031536877466596305,-0.048157847282869884,0.05856557459519504,-0.008621864115522702,0.0014134412914142717,-0.0033317502518550213,7.5851188457095615,0.235617706020303,0.2771390745283399,2.102132817087418,NORMAL,1.0,1.0
23.002119064331055,0.08329607562298998,-1.3575994250726315,1.4079399729718256,-1.154327775105242,1.0113033321222393,0.0499995370955775,0.0031617370665827736,-0.04815631296471762,0.05857143653902238,-0.008624205898576357,0.0014171368238152205,-0.003340485224926023,7.586299492579415,0.2356173253114225,0.2771037284945392,2.1021918748699866,NORMAL,1.0,1.0
23.01028299331665,0.08352124922485288,-1.3574273671695192,1.4076992088405282,-1.154232188107291,1.0111578399869539,0.04999706553728242,0.003169685194646819,-0.04815481618675003,0.05857729355525712,-0.008626558763652774,0.0014207816437304351,-0.0033491175879930995,7.587477445857007,0.2356168379889445,0.2770684709877568,2.102250774577691,NORMAL,1.0,1.0
23.018287181854248,0.08374066587887818,-1.3572588252649482,1.407462578714842,-1.1541395164678079,1.0110147616186018,0.04999257186422465,0.0031774256642035552,-0.04815337635363118,0.05858306469467046,-0.008628889726490969,0.0014243270551088393,-0.0033575314508542987,7.5886364619485,0.23561625479337336,0.27703378799585954,2.1023087047770903,NORMAL,1.0,1.0
23.02550172805786,0.08393728707990192,-1.3571070384253154,1.4072488070340787,-1.1540568749996467,1.0108854324633907,0.04998676502820949,0.0031843581835710225,-0.048152102089637425,0.05858829090488663,-0.008631011248363208,0.0014274987965519396,-0.003365073097159243,7.589684611533242,0.23561563967230206,0.2770024292207816,2.102361074414292,NORMAL,1.0,1.0
23.03408408164978,0.08416976305890755,-1.3569266333748256,1.4069939106673894,-1.1539596631218891,1.010731133606952,0.049977688679377893,0.0031925502002402425,-0.048150615358262275,0.05859453815467118,-0.008633560374610305,0.0014312422700045134,-0.0033739924070387327,7.590935753397509,0.2356147974314099,0.27696500548649355,2.102423562587361,NORMAL,1.0,1.0
23.04245924949646,0.08438098481057703,-1.356761821798798,1.4067602686578111,-1.1538718168246915,1.0105896147968703,0.04996732705195929,0.0031999887991990927,-0.04814928364091689,0.05860027947356495,-0.008635915510222992,0.0014346371077420205,-0.003382098606286555,7.592083857503879,0.23561392215474128,0.27693067165691804,2.1024808819341945,NORMAL,1.0,1.0
23.04998517036438,0.08459638729343759,-1.3565928468836117,1.406519953876485,-1.1537827093002513,1.0104439680859258,0.04995464652489655,0.0032075701940595513,-0.048147944692032554,0.058606199773909434,-0.008638356395652223,0.0014380927319540683,-0.003390367628923733,7.593266031592103,0.23561291952216118,0.2768953268590119,2.1025398797451276,NORMAL,1.0,1.0
23.058318614959717,0.08481783867724935,-1.3564181581934427,1.4062706930876971,-1.1536916116672482,1.0102928069019739,0.0499393419614213,0.0032153597480986127,-0.048146588717822375,0.0586123566006372,-0.00864090791401488,0.0014416384956838543,-0.0033988714491677468,7.594493580378836,0.23561177061281444,0.2768586339259181,2.102601118022839,NORMAL,1.0,1.0
23.065932750701904,0.08501888798406392,-1.3562586950574689,1.4060424300336412,-1.1536093649569223,1.0101542965648505,0.04992341793784308,0.003222427434606523,-0.04814537612605219,0.05861800923654834,-0.008643262115999861,0.0014448513946672477,-0.0034065941708679515,7.595618937038743,0.23561062179043438,0.2768250032462038,2.102657236902677,NORMAL,1.0,1.0
23.07428741455078,0.08523807280142692,-1.3560838859585864,1.4057914027523608,-1.1535202056261724,1.0100018809782454,0.04990381386812981,0.003230128006214599,-0.04814407461148359,0.05862424161295102,-0.008645870515040475,0.00144834723530617,-0.003415016149011522,7.596857861520169,0.2356092523460947,0.27678798708000096,2.1027189956230483,NORMAL,1.0,1.0
23.082804918289185,0.08544677928870673,-1.3559164815346785,1.4055502273531513,-1.1534358089663062,1.0098553561846084,0.049882929438837514,0.0032374558674067837,-0.04814285558819341,0.05863024524337508,-0.00864839566868519,0.001451669135388631,-0.0034230381451092642,7.598049478700478,0.2356078326643026,0.27675239268998264,2.1027783730072325,NORMAL,1.0,1.0
23.089808464050293,0.08564131664992955,-1.3557595879315532,1.4053235010504534,-1.1533575899153519,1.0097175283202167,0.049861476950038126,0.003244282155953664,-0.04814173752353214,0.058635903400990556,-0.008650786600524075,0.0014547593845860992,-0.003430517919754567,7.599170876760544,0.2356064056803523,0.276718903275324,2.10283423081896,NORMAL,1.0,1.0
23.0978422164917,0.0858480129089193,-1.3555919659039555,1.405080529971237,-1.1532749645702556,1.0095697371909198,0.04983654343764667,0.0032515307163090324,-0.048140569238892574,0.0586419822980785,-0.00865336716847802,0.0014580361562346303,-0.003438467804002091,7.600373878958724,0.23560477769441468,0.27668298491523363,2.1028941313020724,NORMAL,1.0,1.0
23.10605788230896,0.08605795691257404,-1.3554207163280405,1.4048315103370026,-1.1531915597126883,1.0094181721552984,0.04980891634192675,0.0032588884766371544,-0.048139403794743074,0.05864822904056359,-0.008656031623851557,0.0014613572696189157,-0.0034465454451519406,7.601608173737283,0.23560300379149612,0.2766461409481103,2.102955566264032,NORMAL,1.0,1.0
23.11412286758423,0.08626263797171134,-1.3552527740776665,1.4045865245133513,-1.153110758995138,1.0092689683549427,0.049779703122143644,0.0032660571624233766,-0.04813828860316938,0.058654390961624725,-0.008658672298019017,0.0014645880335322195,-0.003454423442188962,7.6028237987010625,0.23560115514477592,0.2766098629074311,2.1030160486680556,NORMAL,1.0,1.0
23.121667861938477,0.08645285228887206,-1.3550958103584831,1.404356859666569,-1.1530361324942762,1.0091290106113162,0.0497504972772991,0.003272715007902651,-0.04813727127288366,0.05866018231673116,-0.008661165262069915,0.0014675840246700272,-0.0034617472287024444,7.603964589727967,0.23559932944715753,0.2765758259431835,2.1030727868467327,NORMAL,1.0,1.0
23.129699230194092,0.08665397645189941,-1.3549288891953235,1.404111890018186,-1.1529577207126762,1.0089796352914413,0.04971741716082728,0.0032797502870007085,-0.04813621599408253,0.05866637542974372,-0.0086638429277546,0.001470744966654926,-0.0034694938870793593,7.605182667190812,0.23559728381853945,0.27653949138473705,2.103133346672965,NORMAL,1.0,1.0
23.137402296066284,0.08684556635744657,-1.3547689483554983,1.4038764537440565,-1.1528835084062317,1.008835984502172,0.04968376097156885,0.00328644775657458,-0.04813523067898911,0.05867234296771713,-0.008666434432937686,0.001473749333089204,-0.0034768760874666596,7.606354567678233,0.23559522274091318,0.27650454240434474,2.1031915891010673,NORMAL,1.0,1.0
23.14599585533142,0.08704535241061567,-1.354601174368056,1.4036287396770064,-1.1528066327001276,1.0086847483443642,0.049646390731639393,0.0032934271953444704,-0.04813422441063493,0.05867863809569215,-0.008669180156616592,0.0014768750667492696,-0.0034845770659660256,7.607588875633805,0.23559295416120798,0.2764677409259298,2.1032529103397124,NORMAL,1.0,1.0
23.153523921966553,0.08724236895262248,-1.3544347128986867,1.4033822076757176,-1.152731344313333,1.00853413774275,0.049607217457555024,0.0033003052609838993,-0.04813325377783844,0.058684919920042766,-0.008671932177136325,0.0014799501459179549,-0.0034921743531042505,7.608818607072637,0.23559059514738864,0.27643108473141786,2.103313981077685,NORMAL,1.0,1.0
23.162527322769165,0.08746150497959637,-1.3542483519421202,1.4031053113566279,-1.1526482247458876,1.0083648623185977,0.04956087864795553,0.003307950054870811,-0.04813220009172105,0.05869199542230888,-0.008675046204845932,0.0014833617155618,-0.0035006282945931784,7.610201357055012,0.2355878258368811,0.27638987785838853,2.1033826235541775,NORMAL,1.0,1.0
23.170217514038086,0.08764727513841346,-1.354089344112983,1.4028683110699864,-1.152578284736904,1.0082198798360644,0.04951926260199916,0.003314426237974272,-0.04813132874517944,0.058698068301780176,-0.008677730908746083,0.0014862464377608487,-0.0035077981724044847,7.6113861815104045,0.23558535547797285,0.27635457818709935,2.1034414176104246,NORMAL,1.0,1.0
23.17772626876831,0.08782741205442378,-1.3539342409144937,1.4026364695637483,-1.1525109341536175,1.0080779665368396,0.04947681996084169,0.003320701930873569,-0.04813050347849172,0.0587040240654389,-0.008680374434328382,0.0014890370454038663,-0.0035147534725437747,7.612546377455579,0.23558285007952118,0.2763200202354503,2.1034989690618295,NORMAL,1.0,1.0
23.18576669692993,0.08801893133959486,-1.353768324138314,1.4023877419687811,-1.1524398442231083,1.0079256214388066,0.049429392702554975,0.003327369655458229,-0.0481296477885439,0.058710430238755766,-0.008683229466934552,0.0014919966483878551,-0.0035221514183969684,7.613792349776531,0.23558006504339518,0.2762829161010272,2.103560752983952,NORMAL,1.0,1.0
23.193788051605225,0.08820857879275748,-1.3536029760782864,1.4021391242927683,-1.1523699844445003,1.007773244443852,0.04938004008538191,0.0033339675489347897,-0.048128823049062755,0.058716850829160436,-0.008686102845866071,0.0014949196994997467,-0.0035294803656114016,7.615039085837656,0.2355771812544006,0.27624579833216023,2.103622551597827,NORMAL,1.0,1.0
23.20134449005127,0.08838593646203599,-1.3534473726089553,1.4019044817251392,-1.1523051440402148,1.0076293414497233,0.04933168785664426,0.0033401336028429916,-0.048128072583767965,0.05872292637515271,-0.00868883268037773,0.0014976462970723516,-0.003536337440282964,7.616216943549738,0.23557436834677012,0.27621073958541015,2.103680914820805,NORMAL,1.0,1.0
23.210243463516235,0.08859318680737092,-1.3532643251124972,1.4016276150209512,-1.1522299912224103,1.0074594285590375,0.04927243348042529,0.003347333579574732,-0.04812722177942966,0.05873011509643877,-0.008692076185212073,0.0015008236253980852,-0.003544354112867546,7.617608255339282,0.23557093592584413,0.2761693379103428,2.103749828337411,NORMAL,1.0,1.0
23.217841386795044,0.08876874878220173,-1.3531082133282057,1.4013907725729624,-1.1521668600110686,1.007313979878861,0.04921986582581771,0.0033534281074253927,-0.04812652365781328,0.05873628173275886,-0.00869487006979654,0.0015035075225391032,-0.0035511484126591495,7.618799720357836,0.23556790283521656,0.27613389218108986,2.1038088205306082,NORMAL,1.0,1.0
23.2253680229187,0.08894140041779303,-1.3529537250712076,1.4011557435814699,-1.1521052606467896,1.007169554640777,0.049165998409849344,0.0033594174307270117,-0.04812585782860859,0.05874241681125843,-0.008697660117088137,0.0015061399431520383,-0.003557833187775991,7.619983229404149,0.235564805117385,0.2760986914104676,2.1038673982081946,NORMAL,1.0,1.0
23.233404874801636,0.08912436509198556,-1.352788939933698,1.4009043374796404,-1.1520405182379507,1.0070149658431011,0.049106511562951566,0.003365759915306543,-0.04812517519735542,0.05874899670674877,-0.00870066393092635,0.0015089218671404372,-0.0035649207279507215,7.621250490460932,0.2355613951379092,0.2760610087745301,2.1039300985200273,NORMAL,1.0,1.0
23.24202299118042,0.08931896353899432,-1.3526124394789647,1.4006342427906304,-1.1519722786926017,1.0068487701054836,0.04904046689882751,0.0033725003897244403,-0.04812447576480185,0.05875608573289948,-0.008703913322394688,0.0015118717206230074,-0.003572462958766541,7.622613429853836,0.23555762117965395,0.27602049166275777,2.1039975066633962,NORMAL,1.0,1.0
23.249966144561768,0.08949685257453736,-1.3524499493850186,1.4003848428389418,-1.1519104702621954,1.0066952018167912,0.04897753033896892,0.003378657214144268,-0.04812386101349465,0.058762650054151905,-0.008706934240350444,0.001514559995304276,-0.0035793613177139885,7.6238732937975,0.23555403525199037,0.2759830485003119,2.104059793002348,NORMAL,1.0,1.0
23.25808548927307,0.08967722845402727,-1.3522840415844943,1.4001294605196828,-1.1518483683761611,1.0065378435095598,0.04891115377622227,0.003384895261472635,-0.04812326232213206,0.05876939025639959,-0.008710048012947792,0.001517277560835122,-0.003586359887500545,7.625164721556146,0.23555026317820707,0.27594467699012576,2.104123616086313,NORMAL,1.0,1.0
23.26611566543579,0.08985416970884398,-1.3521201424828242,1.3998764395685923,-1.151788020192536,1.0063818336820667,0.04884347642304222,0.0033910096885481134,-0.04812269978348116,0.058776086573943225,-0.008713153342576559,0.0015199350624916775,-0.003593229000483602,7.626445545737605,0.2355464265389338,0.2759066302747233,2.1041868914981356,NORMAL,1.0,1.0
